(.../EAGLE-7.2.0/ulp/pcb-gcode/pcb-gcode.ulp)
(Copyright 2005 - 2012 by John Johnson)
(See readme.txt for licensing terms.)
(This file generated from the board:)
(.../EAGLE-7.2.0/projects/ep2c5IO/ep2c5_02.brd)
(Current profile is .../pcb-gcode/profiles/generic.pp  )
(This file generated 2021/03/15 12:37:03)
(Settings from pcb-machine.h)
(spindle on time = 2.0000)
(spindle speed = 1000.0000)
(milling depth = -1.8000)
(tool change at 0.0000 0.0000 5.0000 )
(feed rate xy = F50.00 )
(feed rate z  = F50.00 )
(Z Axis Settings)
(  High     Up        Down     Drill)
(5.0000 	1.0000 	-0.1200 	-1.8000 )
(Settings from pcb-defaults.h)
(isolate min = 0.0000)
(isolate max = 0.2500)
(isolate step = 0.2500)
(Generated top outlines, top drill, )
(Unit of measure: mm)
(Metric Mode)
G21
(Absolute Coordinates)
G90
S1000
G00 Z5.0000 
G00 X0.0000 Y0.0000 
M03
G04 P2.000000
G00 Z1.0000 
G00 X0.0000 Y-6.9850 
G01 Z-1.8000 F50.00 
G01 X-8.2550 Y0.6350 F50.00 
G01 X-48.8950 Y0.6350 
G01 X-50.1650 Y-0.6350 
G01 X-50.1650 Y-27.3050 
G01 X-9.8425 Y-27.3050 
G00 Z1.0000 
G00 X-9.5250 Y-27.3050 
G01 Z-1.8000 F50.00 
G01 X-6.3500 Y-26.6700 F50.00 
G01 X0.0000 Y-26.6700 
G01 X0.0000 Y-6.9850 
G00 Z5.0000 
M05
M02
