(.../EAGLE-7.2.0/ulp/pcb-gcode/pcb-gcode.ulp)
(Copyright 2005 - 2012 by John Johnson)
(See readme.txt for licensing terms.)
(This file generated from the board:)
(.../EAGLE-7.2.0/projects/ep2c5IO/ep2c5_02.brd)
(Current profile is .../pcb-gcode/profiles/generic.pp  )
(This file generated 2021/03/15 12:37:03)
(Settings from pcb-machine.h)
(spindle on time = 2.0000)
(spindle speed = 1000.0000)
(tool change at 0.0000 0.0000 5.0000 )
(feed rate xy = F0.00  )
(feed rate z  = F254.00 )
(Z Axis Settings)
(  High     Up        Down     Drill)
(5.0000 	1.0000 	-0.1200 	-1.8000 )
(Settings from pcb-defaults.h)
(isolate min = 0.0000)
(isolate max = 0.2500)
(isolate step = 0.2500)
(Generated top outlines, top drill, )
(Unit of measure: mm)
( Tool|       Size       |  Min Sub |  Max Sub |   Count )
( T01  0.900mm 0.0354in 0.0000in 0.0000in )
( T02  1.016mm 0.0400in 0.0000in 0.0000in )
(Metric Mode)
G21
(Absolute Coordinates)
G90
S1000
G00 Z5.0000 
G00 X0.0000 Y0.0000 
M03
G04 P2.000000
M05
M06 T01  ; 0.9000 
G00 Z1.0000 
M03
G04 P2.000000
G00 Z1.000000
G00 X-33.7800 Y-24.9237 
G01 Z-1.8000 F254.00 
G01 Z1.000000
(R1.0000  P1.000000)
G00 X-41.7800 Y-24.9237 
G01 Z-1.800000
G01 Z1.000000
M05
G00 Z5.0000 
G00 X0.0000 Y0.0000 
M06 T02  ; 1.0160 
G00 Z1.0000 
M03
G04 P2.000000
G00 Z1.000000
G00 X-2.5400 Y-8.8900 
G01 Z-1.8000 F254.00 
G01 Z1.000000
(R1.0000  P1.000000)
G00 X-2.5400 Y-11.4300 
G01 Z-1.800000
G01 Z1.000000
G00 X-5.0800 Y-11.4300 
G01 Z-1.800000
G01 Z1.000000
G00 X-5.0800 Y-8.8900 
G01 Z-1.800000
G01 Z1.000000
G00 X-5.0800 Y-13.9700 
G01 Z-1.800000
G01 Z1.000000
G00 X-2.5400 Y-13.9700 
G01 Z-1.800000
G01 Z1.000000
G00 X-2.5400 Y-16.5100 
G01 Z-1.800000
G01 Z1.000000
G00 X-2.5400 Y-19.0500 
G01 Z-1.800000
G01 Z1.000000
G00 X-2.5400 Y-21.5900 
G01 Z-1.800000
G01 Z1.000000
G00 X-2.5400 Y-24.1300 
G01 Z-1.800000
G01 Z1.000000
G00 X-5.0800 Y-24.1300 
G01 Z-1.800000
G01 Z1.000000
G00 X-5.0800 Y-21.5900 
G01 Z-1.800000
G01 Z1.000000
G00 X-5.0800 Y-19.0500 
G01 Z-1.800000
G01 Z1.000000
G00 X-5.0800 Y-16.5100 
G01 Z-1.800000
G01 Z1.000000
G00 X-10.1600 Y-3.8100 
G01 Z-1.800000
G01 Z1.000000
G00 X-12.7000 Y-3.8100 
G01 Z-1.800000
G01 Z1.000000
G00 X-12.7000 Y-1.2700 
G01 Z-1.800000
G01 Z1.000000
G00 X-10.1600 Y-1.2700 
G01 Z-1.800000
G01 Z1.000000
G00 X-15.2400 Y-1.2700 
G01 Z-1.800000
G01 Z1.000000
G00 X-15.2400 Y-3.8100 
G01 Z-1.800000
G01 Z1.000000
G00 X-17.7800 Y-3.8100 
G01 Z-1.800000
G01 Z1.000000
G00 X-20.3200 Y-3.8100 
G01 Z-1.800000
G01 Z1.000000
G00 X-22.8600 Y-3.8100 
G01 Z-1.800000
G01 Z1.000000
G00 X-25.4000 Y-3.8100 
G01 Z-1.800000
G01 Z1.000000
G00 X-25.4000 Y-1.2700 
G01 Z-1.800000
G01 Z1.000000
G00 X-22.8600 Y-1.2700 
G01 Z-1.800000
G01 Z1.000000
G00 X-20.3200 Y-1.2700 
G01 Z-1.800000
G01 Z1.000000
G00 X-17.7800 Y-1.2700 
G01 Z-1.800000
G01 Z1.000000
G00 X-27.9400 Y-1.2700 
G01 Z-1.800000
G01 Z1.000000
G00 X-30.4800 Y-1.2700 
G01 Z-1.800000
G01 Z1.000000
G00 X-30.4800 Y-3.8100 
G01 Z-1.800000
G01 Z1.000000
G00 X-27.9400 Y-3.8100 
G01 Z-1.800000
G01 Z1.000000
G00 X-33.0200 Y-3.8100 
G01 Z-1.800000
G01 Z1.000000
G00 X-35.5600 Y-3.8100 
G01 Z-1.800000
G01 Z1.000000
G00 X-38.1000 Y-3.8100 
G01 Z-1.800000
G01 Z1.000000
G00 X-40.6400 Y-3.8100 
G01 Z-1.800000
G01 Z1.000000
G00 X-43.1800 Y-3.8100 
G01 Z-1.800000
G01 Z1.000000
G00 X-43.1800 Y-1.2700 
G01 Z-1.800000
G01 Z1.000000
G00 X-40.6400 Y-1.2700 
G01 Z-1.800000
G01 Z1.000000
G00 X-38.1000 Y-1.2700 
G01 Z-1.800000
G01 Z1.000000
G00 X-35.5600 Y-1.2700 
G01 Z-1.800000
G01 Z1.000000
G00 X-33.0200 Y-1.2700 
G01 Z-1.800000
G01 Z1.000000
G00 X-48.2600 Y-8.8900 
G01 Z-1.800000
G01 Z1.000000
G00 X-48.2600 Y-11.4300 
G01 Z-1.800000
G01 Z1.000000
G00 X-48.2600 Y-13.9700 
G01 Z-1.800000
G01 Z1.000000
G00 X-48.2600 Y-16.5100 
G01 Z-1.800000
G01 Z1.000000
G00 X-48.2600 Y-19.0500 
G01 Z-1.800000
G01 Z1.000000
T01 
G00 Z5.0000 
M05
M02
