(.../EAGLE-7.2.0/ulp/pcb-gcode/pcb-gcode.ulp)
(Copyright 2005 - 2012 by John Johnson)
(See readme.txt for licensing terms.)
(This file generated from the board:)
(.../EAGLE-7.2.0/projects/ep2c5IO/ep2c5_02.brd)
(Current profile is .../pcb-gcode/profiles/generic.pp  )
(This file generated 2021/03/15 12:37:02)
(Settings from pcb-machine.h)
(spindle on time = 2.0000)
(  Tool Size)
(0.2000 )
(spindle speed = 1000.0000)
(tool change at 0.0000 0.0000 5.0000 )
(feed rate xy = F100.00 )
(feed rate z  = F50.00 )
(Z Axis Settings)
(  High     Up        Down     Drill)
(5.0000 	1.0000 	-0.1200 	-1.8000 )
(Settings from pcb-defaults.h)
(isolate min = 0.0000)
(isolate max = 0.2500)
(isolate step = 0.2500)
(Generated top outlines, top drill, )
(Unit of measure: mm)
(Metric Mode)
G21
(Absolute Coordinates)
G90
S1000
G00 Z5.0000 
G00 X0.0000 Y0.0000 
M03
G04 P2.000000
G00 Z1.0000 
G00 X-0.6580 Y-7.3372 
G01 Z-0.1200 F50.00 
G01 X-0.6821 Y-7.3179 F100.00 
G01 X-0.7039 Y-7.2961 
G01 X-0.7235 Y-7.2848 
G01 X-1.4759 Y-6.6829 
G01 X-1.4977 Y-6.6611 
G01 X-1.5173 Y-6.6498 
G01 X-1.5350 Y-6.6356 
G01 X-1.5633 Y-6.6232 
G01 X-1.5900 Y-6.6078 
G01 X-1.6119 Y-6.6019 
G01 X-1.6326 Y-6.5928 
G01 X-1.6631 Y-6.5882 
G01 X-1.6930 Y-6.5802 
G01 X-1.7156 Y-6.5802 
G01 X-1.7380 Y-6.5768 
G01 X-1.7687 Y-6.5802 
G01 X-6.2445 Y-6.5802 
G01 X-6.3475 Y-6.6078 
G01 X-6.4398 Y-6.6611 
G01 X-6.5152 Y-6.7364 
G01 X-7.8883 Y-8.1095 
G01 X-7.9103 Y-8.1266 
G01 X-7.9258 Y-8.1471 
G01 X-7.9439 Y-8.1652 
G01 X-7.9579 Y-8.1893 
G01 X-7.9747 Y-8.2116 
G01 X-7.9844 Y-8.2353 
G01 X-7.9972 Y-8.2575 
G01 X-8.0044 Y-8.2844 
G01 X-11.2852 Y-16.3301 
G01 X-11.3817 Y-16.3438 
G01 X-11.3479 Y-16.3298 
G01 X-11.3197 Y-16.3016 
G01 X-11.3045 Y-16.2649 
G01 X-11.3045 Y-15.6251 
G01 X-11.3197 Y-15.5884 
G01 X-11.3479 Y-15.5602 
G01 X-11.3846 Y-15.5450 
G01 X-12.7194 Y-15.5450 
G01 X-12.7561 Y-15.5602 
G01 X-12.7843 Y-15.5884 
G01 X-12.7995 Y-15.6251 
G01 X-12.7995 Y-15.6449 
G01 X-14.1724 Y-15.6507 
G01 X-16.2068 Y-13.8342 
G01 X-16.2068 Y-8.5893 
G01 X-16.2042 Y-8.5663 
G01 X-16.2068 Y-8.5495 
G01 X-16.2068 Y-8.5326 
G01 X-16.2128 Y-8.5103 
G01 X-16.2163 Y-8.4874 
G01 X-16.2231 Y-8.4718 
G01 X-16.2275 Y-8.4555 
G01 X-16.2390 Y-8.4355 
G01 X-16.2483 Y-8.4143 
G01 X-16.2589 Y-8.4010 
G01 X-16.2674 Y-8.3863 
G01 X-16.2837 Y-8.3700 
G01 X-17.3752 Y-7.0056 
G01 X-17.3752 Y-4.8625 
G01 X-16.9664 Y-4.8625 
G01 X-16.9296 Y-4.8473 
G01 X-16.9015 Y-4.8191 
G01 X-16.8863 Y-4.7824 
G01 X-16.8863 Y-2.8376 
G01 X-16.9015 Y-2.8009 
G01 X-16.9296 Y-2.7727 
G01 X-16.9664 Y-2.7575 
G01 X-18.5936 Y-2.7575 
G01 X-18.6304 Y-2.7727 
G01 X-18.6585 Y-2.8009 
G01 X-18.6737 Y-2.8376 
G01 X-18.6737 Y-4.7824 
G01 X-18.6585 Y-4.8191 
G01 X-18.6304 Y-4.8473 
G01 X-18.5936 Y-4.8625 
G01 X-18.1848 Y-4.8625 
G01 X-18.1848 Y-7.0383 
G01 X-18.1572 Y-7.1412 
G01 X-18.1039 Y-7.2336 
G01 X-18.0285 Y-7.3089 
G01 X-17.9362 Y-7.3622 
G01 X-17.8475 Y-7.3860 
G01 X-16.8132 Y-8.6789 
G01 X-16.8132 Y-13.9388 
G01 X-16.8132 Y-13.9786 
G01 X-16.8132 Y-14.0099 
G01 X-16.8105 Y-14.0270 
G01 X-16.8006 Y-14.0568 
G01 X-16.7925 Y-14.0870 
G01 X-16.7855 Y-14.1028 
G01 X-16.7683 Y-14.1290 
G01 X-16.7526 Y-14.1562 
G01 X-16.7417 Y-14.1696 
G01 X-16.7183 Y-14.1904 
G01 X-16.6962 Y-14.2126 
G01 X-14.4954 Y-16.1752 
G01 X-14.4726 Y-16.1978 
G01 X-14.4597 Y-16.2071 
G01 X-14.4311 Y-16.2215 
G01 X-14.4033 Y-16.2374 
G01 X-14.3884 Y-16.2431 
G01 X-14.3571 Y-16.2496 
G01 X-14.3261 Y-16.2577 
G01 X-14.3102 Y-16.2593 
G01 X-14.2783 Y-16.2575 
G01 X-12.7995 Y-16.2513 
G01 X-12.7995 Y-16.2649 
G01 X-12.7843 Y-16.3016 
G01 X-12.7561 Y-16.3298 
G01 X-12.7194 Y-16.3450 
G01 X-11.3902 Y-16.3450 
G01 X-12.7194 Y-16.3450 
G01 X-12.7561 Y-16.3602 
G01 X-12.7843 Y-16.3884 
G01 X-12.7995 Y-16.4251 
G01 X-12.7995 Y-17.0649 
G01 X-12.7843 Y-17.1016 
G01 X-12.7561 Y-17.1298 
G01 X-12.7194 Y-17.1450 
G01 X-11.3846 Y-17.1450 
G01 X-11.3479 Y-17.1298 
G01 X-11.3197 Y-17.1016 
G01 X-11.3045 Y-17.0649 
G01 X-11.3045 Y-16.9453 
G01 X-11.1780 Y-16.9274 
G01 X-11.1559 Y-16.9441 
G01 X-11.0572 Y-16.9843 
G01 X-10.9515 Y-16.9977 
G01 X-10.8459 Y-16.9832 
G01 X-10.7477 Y-16.9418 
G01 X-10.6635 Y-16.8765 
G01 X-10.5990 Y-16.7916 
G01 X-7.2760 Y-8.6422 
G01 X-6.0236 Y-7.3898 
G01 X-1.8882 Y-7.3898 
G01 X-1.3573 Y-7.8146 
G01 X-1.3573 Y-10.7806 
G01 X-1.4875 Y-10.8067 
G01 X-1.4875 Y-10.6164 
G01 X-1.5027 Y-10.5796 
G01 X-1.5309 Y-10.5515 
G01 X-1.5676 Y-10.5363 
G01 X-3.5124 Y-10.5363 
G01 X-3.5491 Y-10.5515 
G01 X-3.5773 Y-10.5796 
G01 X-3.5925 Y-10.6164 
G01 X-3.5925 Y-11.0252 
G01 X-4.0275 Y-11.0252 
G01 X-4.0275 Y-10.6164 
G01 X-4.0427 Y-10.5796 
G01 X-4.0709 Y-10.5515 
G01 X-4.1076 Y-10.5363 
G01 X-6.0524 Y-10.5363 
G01 X-6.0891 Y-10.5515 
G01 X-6.1173 Y-10.5796 
G01 X-6.1325 Y-10.6164 
G01 X-6.1325 Y-12.2436 
G01 X-6.1173 Y-12.2804 
G01 X-6.0891 Y-12.3085 
G01 X-6.0524 Y-12.3237 
G01 X-4.1076 Y-12.3237 
G01 X-4.0709 Y-12.3085 
G01 X-4.0427 Y-12.2804 
G01 X-4.0275 Y-12.2436 
G01 X-4.0275 Y-11.8348 
G01 X-3.5925 Y-11.8348 
G01 X-3.5925 Y-12.2436 
G01 X-3.5773 Y-12.2804 
G01 X-3.5491 Y-12.3085 
G01 X-3.5124 Y-12.3237 
G01 X-1.5676 Y-12.3237 
G01 X-1.5309 Y-12.3085 
G01 X-1.5027 Y-12.2804 
G01 X-1.4875 Y-12.2436 
G01 X-1.4875 Y-12.1684 
G01 X-1.3573 Y-12.2074 
G01 X-1.3573 Y-25.0736 
G01 X-1.5923 Y-25.3086 
G01 X-7.8878 Y-25.1550 
G01 X-7.9009 Y-25.1521 
G01 X-7.9409 Y-25.1537 
G01 X-7.9809 Y-25.1528 
G01 X-7.9940 Y-25.1559 
G01 X-8.0074 Y-25.1565 
G01 X-8.0456 Y-25.1684 
G01 X-8.0845 Y-25.1778 
G01 X-8.0963 Y-25.1843 
G01 X-10.5393 Y-25.9477 
G01 X-13.1715 Y-25.9477 
G01 X-22.1410 Y-17.2929 
G01 X-22.2343 Y-17.2413 
G01 X-22.3377 Y-17.2156 
G01 X-22.4443 Y-17.2175 
G01 X-22.5467 Y-17.2469 
G01 X-22.6355 Y-17.3003 
G01 X-22.7605 Y-17.2918 
G01 X-22.7605 Y-17.2251 
G01 X-22.7757 Y-17.1884 
G01 X-22.8039 Y-17.1602 
G01 X-22.8406 Y-17.1450 
G01 X-24.1754 Y-17.1450 
G01 X-24.2121 Y-17.1602 
G01 X-24.2403 Y-17.1884 
G01 X-24.2555 Y-17.2251 
G01 X-24.2555 Y-17.8649 
G01 X-24.2403 Y-17.9016 
G01 X-24.2121 Y-17.9298 
G01 X-24.1754 Y-17.9450 
G01 X-22.8406 Y-17.9450 
G01 X-22.8039 Y-17.9298 
G01 X-22.7757 Y-17.9016 
G01 X-22.6720 Y-17.9056 
G01 X-13.6187 Y-26.6413 
G01 X-13.5836 Y-26.6764 
G01 X-13.5343 Y-26.7049 
G01 X-13.4912 Y-26.7297 
G01 X-13.4362 Y-26.7445 
G01 X-13.3883 Y-26.7573 
G01 X-13.3314 Y-26.7573 
G01 X-10.5224 Y-26.7573 
G01 X-10.4692 Y-26.7573 
G01 X-10.4242 Y-26.7573 
G01 X-10.4076 Y-26.7548 
G01 X-10.3647 Y-26.7414 
G01 X-10.3212 Y-26.7297 
G01 X-7.8806 Y-25.9651 
G01 X-1.4869 Y-26.1210 
G01 X-1.4336 Y-26.1223 
G01 X-1.3853 Y-26.1235 
G01 X-1.3288 Y-26.1098 
G01 X-1.2817 Y-26.0984 
G01 X-1.2306 Y-26.0705 
G01 X-1.1882 Y-26.0474 
G01 X-1.1460 Y-26.0072 
G01 X-1.1110 Y-25.9739 
G01 X-0.7039 Y-25.5652 
G01 X-0.6286 Y-25.4898 
G01 X-0.5753 Y-25.3975 
G01 X-0.5477 Y-25.2945 
G01 X-0.5477 Y-11.9123 
G01 X-0.5463 Y-11.8650 
G01 X-0.5477 Y-11.8530 
G01 X-0.5599 Y-11.8073 
G01 X-0.5708 Y-11.7613 
G01 X-0.5753 Y-11.7500 
G01 X-0.5989 Y-11.7091 
G01 X-0.6213 Y-11.6674 
G01 X-0.6620 Y-11.6243 
G01 X-0.6945 Y-11.5898 
G01 X-0.7449 Y-11.5587 
G01 X-0.7851 Y-11.5338 
G01 X-0.7963 Y-11.5290 
G01 X-0.8419 Y-11.5168 
G01 X-0.8681 Y-11.5090 
G01 X-0.8209 Y-11.4990 
G01 X-0.8090 Y-11.4931 
G01 X-0.7963 Y-11.4897 
G01 X-0.7614 Y-11.4696 
G01 X-0.7253 Y-11.4517 
G01 X-0.7039 Y-11.4364 
G01 X-0.6755 Y-11.4080 
G01 X-0.6452 Y-11.3814 
G01 X-0.6379 Y-11.3704 
G01 X-0.6085 Y-11.3262 
G01 X-0.5861 Y-11.2927 
G01 X-0.5819 Y-11.2802 
G01 X-0.5753 Y-11.2687 
G01 X-0.5649 Y-11.2299 
G01 X-0.5520 Y-11.1917 
G01 X-0.5511 Y-11.1785 
G01 X-0.5477 Y-11.1658 
G01 X-0.5477 Y-11.1255 
G01 X-0.5451 Y-11.0854 
G01 X-0.5477 Y-11.0724 
G01 X-0.5477 Y-7.6506 
G01 X-0.5443 Y-7.6283 
G01 X-0.5477 Y-7.5976 
G01 X-0.5477 Y-7.5667 
G01 X-0.5536 Y-7.5448 
G01 X-0.5561 Y-7.5223 
G01 X-0.5673 Y-7.4936 
G01 X-0.5753 Y-7.4638 
G01 X-0.5866 Y-7.4441 
G01 X-0.5948 Y-7.4230 
G01 X-0.6131 Y-7.3982 
G01 X-0.6286 Y-7.3714 
G01 X-0.6446 Y-7.3554 
G01 X-0.6580 Y-7.3372 
G00 Z1.0000 
G00 X-1.5027 Y-8.0396 
G01 Z-0.1200 F50.00 
G01 X-1.5309 Y-8.0115 F100.00 
G01 X-1.5676 Y-7.9962 
G01 X-3.5124 Y-7.9962 
G01 X-3.5491 Y-8.0115 
G01 X-3.5773 Y-8.0396 
G01 X-3.5925 Y-8.0764 
G01 X-3.5925 Y-8.4852 
G01 X-4.0275 Y-8.4852 
G01 X-4.0275 Y-8.0764 
G01 X-4.0427 Y-8.0396 
G01 X-4.0709 Y-8.0115 
G01 X-4.1076 Y-7.9962 
G01 X-6.0524 Y-7.9962 
G01 X-6.0891 Y-8.0115 
G01 X-6.1173 Y-8.0396 
G01 X-6.1325 Y-8.0764 
G01 X-6.1325 Y-8.4852 
G01 X-6.6383 Y-8.4852 
G01 X-6.6621 Y-8.4817 
G01 X-6.6913 Y-8.4852 
G01 X-6.7208 Y-8.4852 
G01 X-6.7440 Y-8.4914 
G01 X-6.7679 Y-8.4942 
G01 X-6.7953 Y-8.5052 
G01 X-6.8237 Y-8.5128 
G01 X-6.8446 Y-8.5248 
G01 X-6.8669 Y-8.5337 
G01 X-6.8905 Y-8.5513 
G01 X-6.9161 Y-8.5661 
G01 X-6.9331 Y-8.5831 
G01 X-6.9523 Y-8.5975 
G01 X-6.9706 Y-8.6206 
G01 X-6.9914 Y-8.6414 
G01 X-7.0034 Y-8.6623 
G01 X-7.0183 Y-8.6812 
G01 X-7.0300 Y-8.7082 
G01 X-7.0447 Y-8.7338 
G01 X-7.0509 Y-8.7570 
G01 X-10.6414 Y-17.1087 
G01 X-11.3346 Y-17.1735 
G01 X-11.3479 Y-17.1602 
G01 X-11.3846 Y-17.1450 
G01 X-12.7194 Y-17.1450 
G01 X-12.7561 Y-17.1602 
G01 X-12.7843 Y-17.1884 
G01 X-13.0479 Y-17.1771 
G01 X-13.0864 Y-17.1386 
G01 X-13.1788 Y-17.0853 
G01 X-13.2817 Y-17.0577 
G01 X-21.1259 Y-17.0577 
G01 X-22.0068 Y-16.3237 
G01 X-22.1035 Y-16.2789 
G01 X-22.2086 Y-16.2608 
G01 X-22.3147 Y-16.2704 
G01 X-22.4148 Y-16.3072 
G01 X-22.5019 Y-16.3687 
G01 X-22.5131 Y-16.3821 
G01 X-22.7719 Y-16.3975 
G01 X-22.8039 Y-16.3602 
G01 X-22.8406 Y-16.3450 
G01 X-24.1754 Y-16.3450 
G01 X-24.2121 Y-16.3602 
G01 X-24.2403 Y-16.3884 
G01 X-24.2555 Y-16.4251 
G01 X-24.2555 Y-17.0649 
G01 X-24.2403 Y-17.1016 
G01 X-24.2121 Y-17.1298 
G01 X-24.1754 Y-17.1450 
G01 X-22.8406 Y-17.1450 
G01 X-22.8039 Y-17.1298 
G01 X-22.7757 Y-17.1016 
G01 X-22.7605 Y-17.0649 
G01 X-22.7605 Y-17.0043 
G01 X-22.4750 Y-16.9873 
G01 X-21.5458 Y-17.7617 
G01 X-21.5210 Y-17.7864 
G01 X-21.5050 Y-17.7957 
G01 X-21.4907 Y-17.8076 
G01 X-21.4590 Y-17.8222 
G01 X-21.4287 Y-17.8397 
G01 X-21.4108 Y-17.8445 
G01 X-21.3940 Y-17.8523 
G01 X-21.3595 Y-17.8583 
G01 X-21.3258 Y-17.8673 
G01 X-21.3072 Y-17.8673 
G01 X-21.2889 Y-17.8705 
G01 X-21.2541 Y-17.8673 
G01 X-13.2817 Y-17.8673 
G01 X-13.1788 Y-17.8397 
G01 X-13.0864 Y-17.7864 
G01 X-12.7995 Y-17.8008 
G01 X-12.7995 Y-17.8649 
G01 X-12.7843 Y-17.9016 
G01 X-12.7561 Y-17.9298 
G01 X-12.7194 Y-17.9450 
G01 X-11.3846 Y-17.9450 
G01 X-11.3479 Y-17.9298 
G01 X-11.3197 Y-17.9016 
G01 X-11.3045 Y-17.8649 
G01 X-11.3045 Y-17.7797 
G01 X-10.5580 Y-17.7100 
G01 X-10.5276 Y-17.7340 
G01 X-10.4297 Y-17.7761 
G01 X-10.3242 Y-17.7914 
G01 X-10.2183 Y-17.7789 
G01 X-10.1193 Y-17.7394 
G01 X-10.0339 Y-17.6757 
G01 X-9.9679 Y-17.5920 
G01 X-6.4009 Y-9.2948 
G01 X-6.1325 Y-9.2948 
G01 X-6.1325 Y-9.7036 
G01 X-6.1173 Y-9.7404 
G01 X-6.0891 Y-9.7685 
G01 X-6.0524 Y-9.7837 
G01 X-4.1076 Y-9.7837 
G01 X-4.0709 Y-9.7685 
G01 X-4.0427 Y-9.7404 
G01 X-4.0275 Y-9.7036 
G01 X-4.0275 Y-9.2948 
G01 X-3.5925 Y-9.2948 
G01 X-3.5925 Y-9.7036 
G01 X-3.5773 Y-9.7404 
G01 X-3.5491 Y-9.7685 
G01 X-3.5124 Y-9.7837 
G01 X-1.5676 Y-9.7837 
G01 X-1.5309 Y-9.7685 
G01 X-1.5027 Y-9.7404 
G01 X-1.4875 Y-9.7036 
G01 X-1.4875 Y-8.0764 
G01 X-1.5027 Y-8.0396 
G00 Z1.0000 
G00 X-1.5027 Y-13.1196 
G01 Z-0.1200 F50.00 
G01 X-1.5309 Y-13.0915 F100.00 
G01 X-1.5676 Y-13.0762 
G01 X-3.5124 Y-13.0762 
G01 X-3.5491 Y-13.0915 
G01 X-3.5773 Y-13.1196 
G01 X-3.5925 Y-13.1564 
G01 X-3.5925 Y-14.4500 
G01 X-4.0793 Y-14.9368 
G01 X-6.9724 Y-14.9368 
G01 X-6.9996 Y-14.9345 
G01 X-7.0122 Y-14.9368 
G01 X-7.0249 Y-14.9368 
G01 X-7.0513 Y-14.9439 
G01 X-7.0782 Y-14.9487 
G01 X-7.0897 Y-14.9542 
G01 X-7.1020 Y-14.9575 
G01 X-7.1257 Y-14.9711 
G01 X-7.1504 Y-14.9828 
G01 X-7.1712 Y-14.9974 
G01 X-7.1905 Y-15.0167 
G01 X-7.2113 Y-15.0344 
G01 X-7.2186 Y-15.0448 
G01 X-7.2413 Y-15.0775 
G01 X-9.8431 Y-18.8272 
G01 X-11.3045 Y-18.8369 
G01 X-11.3045 Y-18.8251 
G01 X-11.3197 Y-18.7884 
G01 X-11.3479 Y-18.7602 
G01 X-11.3846 Y-18.7450 
G01 X-12.7194 Y-18.7450 
G01 X-12.7561 Y-18.7602 
G01 X-12.7843 Y-18.7884 
G01 X-12.7995 Y-18.8251 
G01 X-12.7995 Y-19.4649 
G01 X-12.7843 Y-19.5016 
G01 X-12.7561 Y-19.5298 
G01 X-12.7194 Y-19.5450 
G01 X-11.3846 Y-19.5450 
G01 X-11.3479 Y-19.5298 
G01 X-11.3197 Y-19.5016 
G01 X-11.3045 Y-19.4649 
G01 X-11.3045 Y-19.4433 
G01 X-9.6953 Y-19.4327 
G01 X-9.6691 Y-19.4348 
G01 X-9.6556 Y-19.4324 
G01 X-9.6418 Y-19.4323 
G01 X-9.6164 Y-19.4253 
G01 X-9.5905 Y-19.4206 
G01 X-9.5781 Y-19.4148 
G01 X-9.5649 Y-19.4111 
G01 X-9.5422 Y-19.3978 
G01 X-9.5183 Y-19.3866 
G01 X-9.5078 Y-19.3777 
G01 X-9.4960 Y-19.3708 
G01 X-9.4775 Y-19.3520 
G01 X-9.4574 Y-19.3350 
G01 X-9.4496 Y-19.3237 
G01 X-9.4269 Y-19.2910 
G01 X-6.8263 Y-15.5432 
G01 X-4.0793 Y-15.5432 
G01 X-4.0586 Y-15.5639 
G01 X-3.9662 Y-15.6172 
G01 X-3.8633 Y-15.6448 
G01 X-3.7567 Y-15.6448 
G01 X-3.6538 Y-15.6172 
G01 X-3.5614 Y-15.5639 
G01 X-2.8613 Y-14.8637 
G01 X-1.5676 Y-14.8637 
G01 X-1.5309 Y-14.8485 
G01 X-1.5027 Y-14.8204 
G01 X-1.4875 Y-14.7836 
G01 X-1.4875 Y-13.1564 
G01 X-1.5027 Y-13.1196 
G00 Z1.0000 
G00 X-4.0427 Y-13.1196 
G01 Z-0.1200 F50.00 
G01 X-4.0709 Y-13.0915 F100.00 
G01 X-4.1076 Y-13.0762 
G01 X-6.0524 Y-13.0762 
G01 X-6.0891 Y-13.0915 
G01 X-6.1173 Y-13.1196 
G01 X-6.1325 Y-13.1564 
G01 X-6.1325 Y-13.5652 
G01 X-7.0383 Y-13.5652 
G01 X-7.1412 Y-13.5928 
G01 X-7.2336 Y-13.6461 
G01 X-7.3089 Y-13.7214 
G01 X-7.3622 Y-13.8138 
G01 X-7.3898 Y-13.9167 
G01 X-7.3898 Y-14.0184 
G01 X-10.1634 Y-17.9598 
G01 X-11.3110 Y-18.0094 
G01 X-11.3197 Y-17.9884 
G01 X-11.3479 Y-17.9602 
G01 X-11.3846 Y-17.9450 
G01 X-12.7194 Y-17.9450 
G01 X-12.7561 Y-17.9602 
G01 X-12.7843 Y-17.9884 
G01 X-12.7995 Y-18.0251 
G01 X-12.7995 Y-18.6649 
G01 X-12.7843 Y-18.7016 
G01 X-12.7561 Y-18.7298 
G01 X-12.7194 Y-18.7450 
G01 X-11.3846 Y-18.7450 
G01 X-11.3479 Y-18.7298 
G01 X-11.3197 Y-18.7016 
G01 X-11.3045 Y-18.6649 
G01 X-11.3045 Y-18.6161 
G01 X-10.0083 Y-18.5600 
G01 X-9.9886 Y-18.5618 
G01 X-9.9686 Y-18.5583 
G01 X-9.9483 Y-18.5574 
G01 X-9.9294 Y-18.5515 
G01 X-9.9100 Y-18.5481 
G01 X-9.8915 Y-18.5396 
G01 X-9.8721 Y-18.5335 
G01 X-9.8555 Y-18.5229 
G01 X-9.8375 Y-18.5146 
G01 X-9.8219 Y-18.5015 
G01 X-9.8048 Y-18.4906 
G01 X-9.7914 Y-18.4760 
G01 X-9.7763 Y-18.4634 
G01 X-9.7646 Y-18.4468 
G01 X-9.7508 Y-18.4318 
G01 X-9.7417 Y-18.4142 
G01 X-6.8991 Y-14.3748 
G01 X-6.1325 Y-14.3748 
G01 X-6.1325 Y-14.7836 
G01 X-6.1173 Y-14.8204 
G01 X-6.0891 Y-14.8485 
G01 X-6.0524 Y-14.8637 
G01 X-4.1076 Y-14.8637 
G01 X-4.0709 Y-14.8485 
G01 X-4.0427 Y-14.8204 
G01 X-4.0275 Y-14.7836 
G01 X-4.0275 Y-13.1564 
G01 X-4.0427 Y-13.1196 
G00 Z1.0000 
G00 X-4.0427 Y-15.6596 
G01 Z-0.1200 F50.00 
G01 X-4.0709 Y-15.6315 F100.00 
G01 X-4.1076 Y-15.6163 
G01 X-6.0524 Y-15.6163 
G01 X-6.0891 Y-15.6315 
G01 X-6.1173 Y-15.6596 
G01 X-6.1325 Y-15.6964 
G01 X-6.1325 Y-16.1052 
G01 X-6.7208 Y-16.1052 
G01 X-6.8237 Y-16.1328 
G01 X-6.9161 Y-16.1861 
G01 X-6.9914 Y-16.2614 
G01 X-7.0447 Y-16.3538 
G01 X-7.0723 Y-16.4567 
G01 X-7.0723 Y-16.5270 
G01 X-9.5908 Y-19.6211 
G01 X-11.3045 Y-19.6355 
G01 X-11.3045 Y-19.6251 
G01 X-11.3197 Y-19.5884 
G01 X-11.3479 Y-19.5602 
G01 X-11.3846 Y-19.5450 
G01 X-12.7194 Y-19.5450 
G01 X-12.7561 Y-19.5602 
G01 X-12.7843 Y-19.5884 
G01 X-12.7995 Y-19.6251 
G01 X-12.7995 Y-20.2649 
G01 X-12.7843 Y-20.3016 
G01 X-12.7561 Y-20.3298 
G01 X-12.7194 Y-20.3450 
G01 X-11.3846 Y-20.3450 
G01 X-11.3479 Y-20.3298 
G01 X-11.3197 Y-20.3016 
G01 X-11.3045 Y-20.2649 
G01 X-11.3045 Y-20.2419 
G01 X-9.4686 Y-20.2265 
G01 X-9.4544 Y-20.2288 
G01 X-9.4288 Y-20.2262 
G01 X-9.4032 Y-20.2260 
G01 X-9.3893 Y-20.2221 
G01 X-9.3750 Y-20.2207 
G01 X-9.3510 Y-20.2115 
G01 X-9.3262 Y-20.2047 
G01 X-9.3138 Y-20.1974 
G01 X-9.3004 Y-20.1922 
G01 X-9.2796 Y-20.1772 
G01 X-9.2574 Y-20.1642 
G01 X-9.2473 Y-20.1539 
G01 X-9.2357 Y-20.1455 
G01 X-9.2195 Y-20.1256 
G01 X-9.2014 Y-20.1073 
G01 X-9.1944 Y-20.0947 
G01 X-6.6060 Y-16.9148 
G01 X-6.1325 Y-16.9148 
G01 X-6.1325 Y-17.3236 
G01 X-6.1173 Y-17.3604 
G01 X-6.0891 Y-17.3885 
G01 X-6.0524 Y-17.4037 
G01 X-4.1076 Y-17.4037 
G01 X-4.0709 Y-17.3885 
G01 X-4.0427 Y-17.3604 
G01 X-4.0275 Y-17.3236 
G01 X-4.0275 Y-15.6964 
G01 X-4.0427 Y-15.6596 
G00 Z1.0000 
G00 X-3.5773 Y-15.6596 
G01 Z-0.1200 F50.00 
G01 X-3.5925 Y-15.6964 F100.00 
G01 X-3.5925 Y-16.9900 
G01 X-4.0793 Y-17.4768 
G01 X-6.6411 Y-17.4768 
G01 X-6.6544 Y-17.4745 
G01 X-6.6808 Y-17.4768 
G01 X-6.7074 Y-17.4768 
G01 X-6.7205 Y-17.4803 
G01 X-6.7339 Y-17.4815 
G01 X-6.7589 Y-17.4906 
G01 X-6.7845 Y-17.4975 
G01 X-6.7962 Y-17.5042 
G01 X-6.8089 Y-17.5088 
G01 X-6.8307 Y-17.5241 
G01 X-6.8537 Y-17.5374 
G01 X-6.8743 Y-17.5547 
G01 X-6.8913 Y-17.5750 
G01 X-6.9101 Y-17.5938 
G01 X-6.9169 Y-17.6055 
G01 X-9.2708 Y-20.4150 
G01 X-11.3045 Y-20.4346 
G01 X-11.3197 Y-20.3884 
G01 X-11.3479 Y-20.3602 
G01 X-11.3846 Y-20.3450 
G01 X-12.7194 Y-20.3450 
G01 X-12.7561 Y-20.3602 
G01 X-12.7843 Y-20.3884 
G01 X-12.7995 Y-20.4251 
G01 X-12.7995 Y-21.0649 
G01 X-12.7843 Y-21.1016 
G01 X-12.7561 Y-21.1298 
G01 X-12.7194 Y-21.1450 
G01 X-11.3846 Y-21.1450 
G01 X-11.3479 Y-21.1298 
G01 X-11.3197 Y-21.1016 
G01 X-11.3045 Y-21.0649 
G01 X-11.3045 Y-21.0410 
G01 X-9.1531 Y-21.0203 
G01 X-9.1412 Y-21.0224 
G01 X-9.1133 Y-21.0199 
G01 X-9.0853 Y-21.0197 
G01 X-9.0737 Y-21.0164 
G01 X-9.0617 Y-21.0154 
G01 X-9.0354 Y-21.0058 
G01 X-9.0084 Y-20.9983 
G01 X-8.9980 Y-20.9922 
G01 X-8.9867 Y-20.9880 
G01 X-8.9638 Y-20.9719 
G01 X-8.9396 Y-20.9577 
G01 X-8.9214 Y-20.9422 
G01 X-8.9033 Y-20.9207 
G01 X-8.8837 Y-20.9007 
G01 X-8.8778 Y-20.8902 
G01 X-6.5260 Y-18.0832 
G01 X-4.0793 Y-18.0832 
G01 X-4.0586 Y-18.1039 
G01 X-3.9662 Y-18.1572 
G01 X-3.8633 Y-18.1848 
G01 X-3.7567 Y-18.1848 
G01 X-3.6538 Y-18.1572 
G01 X-3.5614 Y-18.1039 
G01 X-2.8613 Y-17.4037 
G01 X-1.5676 Y-17.4037 
G01 X-1.5309 Y-17.3885 
G01 X-1.5027 Y-17.3604 
G01 X-1.4875 Y-17.3236 
G01 X-1.4875 Y-15.6964 
G01 X-1.5027 Y-15.6596 
G01 X-1.5309 Y-15.6315 
G01 X-1.5676 Y-15.6163 
G01 X-3.5124 Y-15.6163 
G01 X-3.5491 Y-15.6315 
G01 X-3.5773 Y-15.6596 
G00 Z1.0000 
G00 X-3.5491 Y-18.1715 
G01 Z-0.1200 F50.00 
G01 X-3.5773 Y-18.1996 F100.00 
G01 X-3.5925 Y-18.2364 
G01 X-3.5925 Y-19.8636 
G01 X-3.5773 Y-19.9004 
G01 X-3.5491 Y-19.9285 
G01 X-3.5124 Y-19.9437 
G01 X-1.5676 Y-19.9437 
G01 X-1.5309 Y-19.9285 
G01 X-1.5027 Y-19.9004 
G01 X-1.4875 Y-19.8636 
G01 X-1.4875 Y-18.2364 
G01 X-1.5027 Y-18.1996 
G01 X-1.5309 Y-18.1715 
G01 X-1.5676 Y-18.1562 
G01 X-3.5124 Y-18.1562 
G01 X-3.5491 Y-18.1715 
G00 Z1.0000 
G00 X-4.0427 Y-18.1996 
G01 Z-0.1200 F50.00 
G01 X-4.0709 Y-18.1715 F100.00 
G01 X-4.1076 Y-18.1562 
G01 X-6.0524 Y-18.1562 
G01 X-6.0891 Y-18.1715 
G01 X-6.1173 Y-18.1996 
G01 X-6.1325 Y-18.2364 
G01 X-6.1325 Y-19.8636 
G01 X-6.1173 Y-19.9004 
G01 X-6.0891 Y-19.9285 
G01 X-6.0524 Y-19.9437 
G01 X-4.1076 Y-19.9437 
G01 X-4.0709 Y-19.9285 
G01 X-4.0427 Y-19.9004 
G01 X-4.0275 Y-19.8636 
G01 X-4.0275 Y-18.2364 
G01 X-4.0427 Y-18.1996 
G00 Z1.0000 
G00 X-4.0427 Y-20.7396 
G01 Z-0.1200 F50.00 
G01 X-4.0709 Y-20.7115 F100.00 
G01 X-4.1076 Y-20.6962 
G01 X-6.0524 Y-20.6962 
G01 X-6.0891 Y-20.7115 
G01 X-6.1173 Y-20.7396 
G01 X-6.1325 Y-20.7764 
G01 X-6.1325 Y-21.3550 
G01 X-7.1041 Y-21.5170 
G01 X-7.2011 Y-21.5611 
G01 X-7.2197 Y-21.5764 
G01 X-9.7831 Y-21.2915 
G01 X-9.7964 Y-21.2877 
G01 X-9.8226 Y-21.2871 
G01 X-9.8487 Y-21.2842 
G01 X-9.8624 Y-21.2863 
G01 X-11.3045 Y-21.2570 
G01 X-11.3045 Y-21.2251 
G01 X-11.3197 Y-21.1884 
G01 X-11.3479 Y-21.1602 
G01 X-11.3846 Y-21.1450 
G01 X-12.7194 Y-21.1450 
G01 X-12.7561 Y-21.1602 
G01 X-12.7843 Y-21.1884 
G01 X-12.7995 Y-21.2251 
G01 X-12.7995 Y-21.8649 
G01 X-12.7843 Y-21.9016 
G01 X-12.7561 Y-21.9298 
G01 X-12.7194 Y-21.9450 
G01 X-11.3846 Y-21.9450 
G01 X-11.3479 Y-21.9298 
G01 X-11.3197 Y-21.9016 
G01 X-11.3045 Y-21.8649 
G01 X-9.8624 Y-21.8929 
G01 X-7.2857 Y-22.1791 
G01 X-7.2637 Y-22.2059 
G01 X-7.1769 Y-22.2679 
G01 X-7.0771 Y-22.3053 
G01 X-6.9710 Y-22.3156 
G01 X-6.1325 Y-22.1758 
G01 X-6.1325 Y-22.4036 
G01 X-6.1173 Y-22.4404 
G01 X-6.0891 Y-22.4685 
G01 X-6.0524 Y-22.4837 
G01 X-4.1076 Y-22.4837 
G01 X-4.0709 Y-22.4685 
G01 X-4.0427 Y-22.4404 
G01 X-4.0275 Y-22.4036 
G01 X-4.0275 Y-20.7764 
G01 X-4.0427 Y-20.7396 
G00 Z1.0000 
G00 X-3.5773 Y-20.7396 
G01 Z-0.1200 F50.00 
G01 X-3.5925 Y-20.7764 F100.00 
G01 X-3.5925 Y-22.0700 
G01 X-4.0793 Y-22.5568 
G01 X-6.9610 Y-22.5568 
G01 X-10.4181 Y-22.0068 
G01 X-10.4454 Y-22.0002 
G01 X-10.4574 Y-22.0006 
G01 X-10.4693 Y-21.9987 
G01 X-10.4972 Y-22.0016 
G01 X-11.3056 Y-22.0224 
G01 X-11.3197 Y-21.9884 
G01 X-11.3479 Y-21.9602 
G01 X-11.3846 Y-21.9450 
G01 X-12.7194 Y-21.9450 
G01 X-12.7561 Y-21.9602 
G01 X-12.7843 Y-21.9884 
G01 X-12.7995 Y-22.0251 
G01 X-12.7995 Y-22.6649 
G01 X-12.7843 Y-22.7016 
G01 X-12.7561 Y-22.7298 
G01 X-12.7194 Y-22.7450 
G01 X-11.3846 Y-22.7450 
G01 X-11.3479 Y-22.7298 
G01 X-11.3197 Y-22.7016 
G01 X-11.3045 Y-22.6649 
G01 X-11.3045 Y-22.6290 
G01 X-10.4976 Y-22.6082 
G01 X-7.0482 Y-23.1569 
G01 X-7.0249 Y-23.1632 
G01 X-7.0090 Y-23.1632 
G01 X-6.9932 Y-23.1657 
G01 X-6.9692 Y-23.1632 
G01 X-4.0793 Y-23.1632 
G01 X-4.0586 Y-23.1839 
G01 X-3.9662 Y-23.2372 
G01 X-3.8633 Y-23.2648 
G01 X-3.7567 Y-23.2648 
G01 X-3.6538 Y-23.2372 
G01 X-3.5614 Y-23.1839 
G01 X-2.8613 Y-22.4837 
G01 X-1.5676 Y-22.4837 
G01 X-1.5309 Y-22.4685 
G01 X-1.5027 Y-22.4404 
G01 X-1.4875 Y-22.4036 
G01 X-1.4875 Y-20.7764 
G01 X-1.5027 Y-20.7396 
G01 X-1.5309 Y-20.7115 
G01 X-1.5676 Y-20.6962 
G01 X-3.5124 Y-20.6962 
G01 X-3.5491 Y-20.7115 
G01 X-3.5773 Y-20.7396 
G00 Z1.0000 
G00 X-3.5491 Y-23.2515 
G01 Z-0.1200 F50.00 
G01 X-3.5773 Y-23.2796 F100.00 
G01 X-3.5925 Y-23.3164 
G01 X-3.5925 Y-24.9436 
G01 X-3.5773 Y-24.9804 
G01 X-3.5491 Y-25.0085 
G01 X-3.5124 Y-25.0237 
G01 X-1.5676 Y-25.0237 
G01 X-1.5309 Y-25.0085 
G01 X-1.5027 Y-24.9804 
G01 X-1.4875 Y-24.9436 
G01 X-1.4875 Y-23.3164 
G01 X-1.5027 Y-23.2796 
G01 X-1.5309 Y-23.2515 
G01 X-1.5676 Y-23.2362 
G01 X-3.5124 Y-23.2362 
G01 X-3.5491 Y-23.2515 
G00 Z1.0000 
G00 X-4.0427 Y-23.2796 
G01 Z-0.1200 F50.00 
G01 X-4.0709 Y-23.2515 F100.00 
G01 X-4.1076 Y-23.2362 
G01 X-6.0524 Y-23.2362 
G01 X-6.0891 Y-23.2515 
G01 X-6.1173 Y-23.2796 
G01 X-6.1325 Y-23.3164 
G01 X-6.1325 Y-23.7252 
G01 X-6.7208 Y-23.7252 
G01 X-6.8237 Y-23.7528 
G01 X-6.8547 Y-23.7707 
G01 X-10.3984 Y-22.8847 
G01 X-10.4313 Y-22.8752 
G01 X-10.4427 Y-22.8737 
G01 X-10.4769 Y-22.8742 
G01 X-11.3045 Y-22.8572 
G01 X-11.3045 Y-22.8251 
G01 X-11.3197 Y-22.7884 
G01 X-11.3479 Y-22.7602 
G01 X-11.3846 Y-22.7450 
G01 X-12.7194 Y-22.7450 
G01 X-12.7561 Y-22.7602 
G01 X-12.7843 Y-22.7884 
G01 X-12.7995 Y-22.8251 
G01 X-12.7995 Y-23.4649 
G01 X-12.7843 Y-23.5016 
G01 X-12.7561 Y-23.5298 
G01 X-12.7194 Y-23.5450 
G01 X-11.3846 Y-23.5450 
G01 X-11.3479 Y-23.5298 
G01 X-11.3197 Y-23.5016 
G01 X-11.3045 Y-23.4649 
G01 X-10.5179 Y-23.4799 
G01 X-7.0029 Y-24.3587 
G01 X-6.9914 Y-24.3786 
G01 X-6.9161 Y-24.4539 
G01 X-6.8237 Y-24.5072 
G01 X-6.7208 Y-24.5348 
G01 X-6.1325 Y-24.5348 
G01 X-6.1325 Y-24.9436 
G01 X-6.1173 Y-24.9804 
G01 X-6.0891 Y-25.0085 
G01 X-6.0524 Y-25.0237 
G01 X-4.1076 Y-25.0237 
G01 X-4.0709 Y-25.0085 
G01 X-4.0427 Y-24.9804 
G01 X-4.0275 Y-24.9436 
G01 X-4.0275 Y-23.3164 
G01 X-4.0427 Y-23.2796 
G00 Z1.0000 
G00 X-11.3197 Y-23.5884 
G01 Z-0.1200 F50.00 
G01 X-11.3479 Y-23.5602 F100.00 
G01 X-11.3846 Y-23.5450 
G01 X-12.7194 Y-23.5450 
G01 X-12.7561 Y-23.5602 
G01 X-12.7843 Y-23.5884 
G01 X-12.7995 Y-23.6251 
G01 X-12.7995 Y-24.2649 
G01 X-12.7843 Y-24.3016 
G01 X-12.7561 Y-24.3298 
G01 X-12.7194 Y-24.3450 
G01 X-11.3846 Y-24.3450 
G01 X-11.3479 Y-24.3298 
G01 X-11.3197 Y-24.3016 
G01 X-11.3045 Y-24.2649 
G01 X-11.3045 Y-23.6251 
G01 X-11.3197 Y-23.5884 
G00 Z1.0000 
G00 X-11.3197 Y-24.3884 
G01 Z-0.1200 F50.00 
G01 X-11.3479 Y-24.3602 F100.00 
G01 X-11.3846 Y-24.3450 
G01 X-12.7194 Y-24.3450 
G01 X-12.7561 Y-24.3602 
G01 X-12.7843 Y-24.3884 
G01 X-12.7995 Y-24.4251 
G01 X-12.7995 Y-25.0649 
G01 X-12.7843 Y-25.1016 
G01 X-12.7561 Y-25.1298 
G01 X-12.7194 Y-25.1450 
G01 X-11.3846 Y-25.1450 
G01 X-11.3479 Y-25.1298 
G01 X-11.3197 Y-25.1016 
G01 X-11.3045 Y-25.0649 
G01 X-11.3045 Y-24.4251 
G01 X-11.3197 Y-24.3884 
G00 Z1.0000 
G00 X-11.3197 Y-25.1884 
G01 Z-0.1200 F50.00 
G01 X-11.3479 Y-25.1602 F100.00 
G01 X-11.3846 Y-25.1450 
G01 X-12.7194 Y-25.1450 
G01 X-12.7561 Y-25.1602 
G01 X-12.7843 Y-25.1884 
G01 X-12.7995 Y-25.2251 
G01 X-12.7995 Y-25.8649 
G01 X-12.7843 Y-25.9016 
G01 X-12.7561 Y-25.9298 
G01 X-12.7194 Y-25.9450 
G01 X-11.3846 Y-25.9450 
G01 X-11.3479 Y-25.9298 
G01 X-11.3197 Y-25.9016 
G01 X-11.3045 Y-25.8649 
G01 X-11.3045 Y-25.2251 
G01 X-11.3197 Y-25.1884 
G00 Z1.0000 
G00 X-11.3479 Y-15.5298 
G01 Z-0.1200 F50.00 
G01 X-11.3197 Y-15.5016 F100.00 
G01 X-11.3045 Y-15.4649 
G01 X-11.3045 Y-14.8251 
G01 X-11.3197 Y-14.7884 
G01 X-11.3479 Y-14.7602 
G01 X-11.3846 Y-14.7450 
G01 X-12.7194 Y-14.7450 
G01 X-12.7561 Y-14.7602 
G01 X-12.7843 Y-14.7884 
G01 X-12.7995 Y-14.8251 
G01 X-12.7995 Y-14.8479 
G01 X-13.8500 Y-14.8564 
G01 X-15.2543 Y-13.5223 
G01 X-15.2543 Y-8.6098 
G01 X-15.2543 Y-8.5700 
G01 X-15.2543 Y-8.5326 
G01 X-15.2653 Y-8.4916 
G01 X-15.2750 Y-8.4555 
G01 X-15.2962 Y-8.4187 
G01 X-15.3149 Y-8.3863 
G01 X-16.2068 Y-6.9010 
G01 X-16.2068 Y-2.8899 
G01 X-16.1938 Y-2.8776 
G01 X-16.1377 Y-2.7870 
G01 X-16.1070 Y-2.6849 
G01 X-16.1038 Y-2.5784 
G01 X-16.1282 Y-2.4746 
G01 X-16.1787 Y-2.3807 
G01 X-16.8863 Y-1.6290 
G01 X-16.8863 Y-0.2976 
G01 X-16.9015 Y-0.2609 
G01 X-16.9296 Y-0.2327 
G01 X-16.9664 Y-0.2175 
G01 X-18.5936 Y-0.2175 
G01 X-18.6304 Y-0.2327 
G01 X-18.6585 Y-0.2609 
G01 X-18.6737 Y-0.2976 
G01 X-18.6737 Y-2.2424 
G01 X-18.6585 Y-2.2791 
G01 X-18.6304 Y-2.3073 
G01 X-18.5936 Y-2.3225 
G01 X-17.3453 Y-2.3225 
G01 X-16.8132 Y-2.8879 
G01 X-16.8132 Y-6.9477 
G01 X-16.8132 Y-6.9875 
G01 X-16.8132 Y-7.0249 
G01 X-16.8022 Y-7.0659 
G01 X-16.7925 Y-7.1020 
G01 X-16.7713 Y-7.1387 
G01 X-16.7526 Y-7.1712 
G01 X-15.8607 Y-8.6565 
G01 X-15.8607 Y-13.6165 
G01 X-15.8607 Y-13.6564 
G01 X-15.8607 Y-13.6924 
G01 X-15.8494 Y-13.7347 
G01 X-15.8400 Y-13.7695 
G01 X-15.8181 Y-13.8074 
G01 X-15.8001 Y-13.8387 
G01 X-15.7692 Y-13.8696 
G01 X-15.7437 Y-13.8951 
G01 X-14.1807 Y-15.3786 
G01 X-14.1542 Y-15.4047 
G01 X-14.1171 Y-15.4257 
G01 X-14.0847 Y-15.4441 
G01 X-14.0435 Y-15.4548 
G01 X-14.0074 Y-15.4641 
G01 X-13.9648 Y-15.4638 
G01 X-12.7995 Y-15.4543 
G01 X-12.7995 Y-15.4649 
G01 X-12.7843 Y-15.5016 
G01 X-12.7561 Y-15.5298 
G01 X-12.7194 Y-15.5450 
G01 X-11.3846 Y-15.5450 
G01 X-11.3479 Y-15.5298 
G00 Z1.0000 
G00 X-11.3479 Y-14.7298 
G01 Z-0.1200 F50.00 
G01 X-11.3197 Y-14.7016 F100.00 
G01 X-11.3045 Y-14.6649 
G01 X-11.3045 Y-14.0251 
G01 X-11.3197 Y-13.9884 
G01 X-11.3479 Y-13.9602 
G01 X-11.3846 Y-13.9450 
G01 X-12.7194 Y-13.9450 
G01 X-12.7561 Y-13.9602 
G01 X-12.7843 Y-13.9884 
G01 X-12.7995 Y-14.0251 
G01 X-12.7995 Y-14.0538 
G01 X-13.3006 Y-14.0618 
G01 X-14.6193 Y-12.8819 
G01 X-14.6193 Y-7.9522 
G01 X-14.6169 Y-7.9270 
G01 X-14.6193 Y-7.9124 
G01 X-14.6193 Y-7.8976 
G01 X-14.6258 Y-7.8732 
G01 X-14.8968 Y-6.2476 
G01 X-14.8628 Y-6.1887 
G01 X-14.8352 Y-6.0858 
G01 X-14.8352 Y-4.8625 
G01 X-14.4264 Y-4.8625 
G01 X-14.3896 Y-4.8473 
G01 X-14.3615 Y-4.8191 
G01 X-14.3462 Y-4.7824 
G01 X-14.3462 Y-2.8376 
G01 X-14.3615 Y-2.8009 
G01 X-14.3896 Y-2.7727 
G01 X-14.4264 Y-2.7575 
G01 X-16.0536 Y-2.7575 
G01 X-16.0904 Y-2.7727 
G01 X-16.1185 Y-2.8009 
G01 X-16.1337 Y-2.8376 
G01 X-16.1337 Y-4.7824 
G01 X-16.1185 Y-4.8191 
G01 X-16.0904 Y-4.8473 
G01 X-16.0536 Y-4.8625 
G01 X-15.6448 Y-4.8625 
G01 X-15.6448 Y-6.0858 
G01 X-15.6172 Y-6.1887 
G01 X-15.5639 Y-6.2810 
G01 X-15.4944 Y-6.3506 
G01 X-15.2257 Y-7.9626 
G01 X-15.2257 Y-12.9861 
G01 X-15.2257 Y-13.0259 
G01 X-15.2257 Y-13.0574 
G01 X-15.2230 Y-13.0742 
G01 X-15.2132 Y-13.1041 
G01 X-15.2050 Y-13.1345 
G01 X-15.1981 Y-13.1500 
G01 X-15.1809 Y-13.1764 
G01 X-15.1651 Y-13.2037 
G01 X-15.1544 Y-13.2168 
G01 X-15.1310 Y-13.2378 
G01 X-15.1087 Y-13.2601 
G01 X-13.6210 Y-14.5889 
G01 X-13.5966 Y-14.6125 
G01 X-13.5565 Y-14.6348 
G01 X-13.5269 Y-14.6513 
G01 X-13.5156 Y-14.6555 
G01 X-13.4824 Y-14.6624 
G01 X-13.4494 Y-14.6707 
G01 X-13.4374 Y-14.6718 
G01 X-13.4036 Y-14.6699 
G01 X-12.7995 Y-14.6602 
G01 X-12.7843 Y-14.7016 
G01 X-12.7561 Y-14.7298 
G01 X-12.7194 Y-14.7450 
G01 X-11.3846 Y-14.7450 
G01 X-11.3479 Y-14.7298 
G00 Z1.0000 
G00 X-11.3479 Y-13.9298 
G01 Z-0.1200 F50.00 
G01 X-11.3197 Y-13.9016 F100.00 
G01 X-11.3045 Y-13.8649 
G01 X-11.3045 Y-13.2251 
G01 X-11.3197 Y-13.1884 
G01 X-11.3479 Y-13.1602 
G01 X-11.3846 Y-13.1450 
G01 X-12.7194 Y-13.1450 
G01 X-12.7561 Y-13.1602 
G01 X-12.7843 Y-13.1884 
G01 X-12.7995 Y-13.2251 
G01 X-12.7995 Y-13.2618 
G01 X-12.9747 Y-13.2665 
G01 X-13.9843 Y-12.2569 
G01 X-13.9843 Y-7.6451 
G01 X-13.6733 Y-5.7793 
G01 X-13.6668 Y-5.7549 
G01 X-13.6668 Y-5.7401 
G01 X-13.6644 Y-5.7255 
G01 X-13.6668 Y-5.7003 
G01 X-13.6668 Y-2.8093 
G01 X-13.6461 Y-2.7885 
G01 X-13.5928 Y-2.6962 
G01 X-13.5652 Y-2.5933 
G01 X-13.5652 Y-2.4867 
G01 X-13.5928 Y-2.3838 
G01 X-13.6461 Y-2.2914 
G01 X-14.3462 Y-1.5913 
G01 X-14.3462 Y-0.2976 
G01 X-14.3615 Y-0.2609 
G01 X-14.3896 Y-0.2327 
G01 X-14.4264 Y-0.2175 
G01 X-16.0536 Y-0.2175 
G01 X-16.0904 Y-0.2327 
G01 X-16.1185 Y-0.2609 
G01 X-16.1337 Y-0.2976 
G01 X-16.1337 Y-2.2424 
G01 X-16.1185 Y-2.2791 
G01 X-16.0904 Y-2.3073 
G01 X-16.0536 Y-2.3225 
G01 X-14.7600 Y-2.3225 
G01 X-14.2732 Y-2.8093 
G01 X-14.2732 Y-5.6899 
G01 X-14.5842 Y-7.5557 
G01 X-14.5907 Y-7.5801 
G01 X-14.5907 Y-7.5949 
G01 X-14.5931 Y-7.6095 
G01 X-14.5907 Y-7.6347 
G01 X-14.5907 Y-12.4224 
G01 X-14.5700 Y-12.4995 
G01 X-14.5301 Y-12.5687 
G01 X-13.3366 Y-13.7622 
G01 X-13.3084 Y-13.7904 
G01 X-13.2830 Y-13.8157 
G01 X-13.2449 Y-13.8377 
G01 X-13.2139 Y-13.8557 
G01 X-13.1714 Y-13.8671 
G01 X-13.1368 Y-13.8763 
G01 X-13.0927 Y-13.8763 
G01 X-13.0570 Y-13.8763 
G01 X-12.7980 Y-13.8684 
G01 X-12.7843 Y-13.9016 
G01 X-12.7561 Y-13.9298 
G01 X-12.7194 Y-13.9450 
G01 X-11.3846 Y-13.9450 
G01 X-11.3479 Y-13.9298 
G00 Z1.0000 
G00 X-11.3479 Y-13.1298 
G01 Z-0.1200 F50.00 
G01 X-11.3197 Y-13.1016 F100.00 
G01 X-11.3045 Y-13.0649 
G01 X-11.3045 Y-12.4251 
G01 X-11.3197 Y-12.3884 
G01 X-11.3479 Y-12.3602 
G01 X-11.3846 Y-12.3450 
G01 X-12.7194 Y-12.3450 
G01 X-12.7561 Y-12.3602 
G01 X-12.7843 Y-12.3884 
G01 X-12.7920 Y-12.4070 
G01 X-12.8503 Y-12.4043 
G01 X-13.3493 Y-11.6557 
G01 X-13.3493 Y-8.0091 
G01 X-12.5505 Y-6.4115 
G01 X-12.4514 Y-6.3564 
G01 X-12.3761 Y-6.2810 
G01 X-12.3228 Y-6.1887 
G01 X-12.2952 Y-6.0858 
G01 X-12.2952 Y-4.8625 
G01 X-11.8864 Y-4.8625 
G01 X-11.8496 Y-4.8473 
G01 X-11.8215 Y-4.8191 
G01 X-11.8063 Y-4.7824 
G01 X-11.8063 Y-2.8376 
G01 X-11.8215 Y-2.8009 
G01 X-11.8496 Y-2.7727 
G01 X-11.8864 Y-2.7575 
G01 X-13.5136 Y-2.7575 
G01 X-13.5504 Y-2.7727 
G01 X-13.5785 Y-2.8009 
G01 X-13.5937 Y-2.8376 
G01 X-13.5937 Y-4.7824 
G01 X-13.5785 Y-4.8191 
G01 X-13.5504 Y-4.8473 
G01 X-13.5136 Y-4.8625 
G01 X-13.1048 Y-4.8625 
G01 X-13.1048 Y-6.0858 
G01 X-13.0911 Y-6.1368 
G01 X-13.9196 Y-7.7938 
G01 X-13.9350 Y-7.8205 
G01 X-13.9415 Y-7.8376 
G01 X-13.9477 Y-7.8678 
G01 X-13.9557 Y-7.8976 
G01 X-13.9575 Y-7.9158 
G01 X-13.9557 Y-7.9466 
G01 X-13.9557 Y-11.7175 
G01 X-13.9557 Y-11.7573 
G01 X-13.9557 Y-11.7874 
G01 X-13.9525 Y-11.8068 
G01 X-13.9428 Y-11.8354 
G01 X-13.9350 Y-11.8645 
G01 X-13.9269 Y-11.8825 
G01 X-13.9102 Y-11.9075 
G01 X-13.8951 Y-11.9337 
G01 X-13.2791 Y-12.8542 
G01 X-13.2685 Y-12.8747 
G01 X-13.2571 Y-12.8872 
G01 X-13.2476 Y-12.9014 
G01 X-13.2303 Y-12.9166 
G01 X-13.2148 Y-12.9337 
G01 X-13.2004 Y-12.9429 
G01 X-13.1877 Y-12.9541 
G01 X-13.1670 Y-12.9643 
G01 X-13.1476 Y-12.9768 
G01 X-13.1314 Y-12.9819 
G01 X-13.1161 Y-12.9895 
G01 X-13.0935 Y-12.9940 
G01 X-13.0715 Y-13.0010 
G01 X-13.0545 Y-13.0018 
G01 X-13.0378 Y-13.0051 
G01 X-13.0148 Y-13.0037 
G01 X-12.7995 Y-13.0137 
G01 X-12.7995 Y-13.0649 
G01 X-12.7843 Y-13.1016 
G01 X-12.7561 Y-13.1298 
G01 X-12.7194 Y-13.1450 
G01 X-11.3846 Y-13.1450 
G01 X-11.3479 Y-13.1298 
G00 Z1.0000 
G00 X-11.3479 Y-12.3298 
G01 Z-0.1200 F50.00 
G01 X-11.3197 Y-12.3016 F100.00 
G01 X-11.3045 Y-12.2649 
G01 X-11.3045 Y-12.2330 
G01 X-10.1917 Y-12.2102 
G01 X-10.1518 Y-12.2093 
G01 X-10.1139 Y-12.2086 
G01 X-10.0737 Y-12.1969 
G01 X-10.0372 Y-12.1863 
G01 X-10.0014 Y-12.1647 
G01 X-9.9689 Y-12.1450 
G01 X-9.9399 Y-12.1148 
G01 X-9.9136 Y-12.0874 
G01 X-9.8934 Y-12.0506 
G01 X-9.8751 Y-12.0175 
G01 X-9.2599 Y-10.8628 
G01 X-9.2425 Y-10.8327 
G01 X-9.2308 Y-10.7891 
G01 X-9.2218 Y-10.7555 
G01 X-9.2206 Y-10.7453 
G01 X-9.2218 Y-10.7105 
G01 X-9.2218 Y-7.6500 
G01 X-9.2218 Y-7.6102 
G01 X-9.2218 Y-7.5801 
G01 X-9.2250 Y-7.5606 
G01 X-9.2347 Y-7.5321 
G01 X-9.2425 Y-7.5030 
G01 X-9.2506 Y-7.4850 
G01 X-9.2673 Y-7.4600 
G01 X-9.2824 Y-7.4338 
G01 X-9.7566 Y-6.7260 
G01 X-9.7552 Y-4.8625 
G01 X-9.3464 Y-4.8625 
G01 X-9.3096 Y-4.8473 
G01 X-9.2815 Y-4.8191 
G01 X-9.2662 Y-4.7824 
G01 X-9.2662 Y-2.8376 
G01 X-9.2815 Y-2.8009 
G01 X-9.3096 Y-2.7727 
G01 X-9.3464 Y-2.7575 
G01 X-10.9736 Y-2.7575 
G01 X-11.0104 Y-2.7727 
G01 X-11.0385 Y-2.8009 
G01 X-11.0537 Y-2.8376 
G01 X-11.0537 Y-4.7824 
G01 X-11.0385 Y-4.8191 
G01 X-11.0104 Y-4.8473 
G01 X-10.9736 Y-4.8625 
G01 X-10.5648 Y-4.8625 
G01 X-10.5648 Y-6.7208 
G01 X-10.5372 Y-6.8237 
G01 X-10.4839 Y-6.9161 
G01 X-10.4085 Y-6.9914 
G01 X-10.3162 Y-7.0447 
G01 X-10.2635 Y-7.0588 
G01 X-9.8282 Y-7.7118 
G01 X-9.8282 Y-10.6398 
G01 X-10.3439 Y-11.6068 
G01 X-11.3045 Y-11.6264 
G01 X-11.3197 Y-11.5884 
G01 X-11.3479 Y-11.5602 
G01 X-11.3846 Y-11.5450 
G01 X-12.7194 Y-11.5450 
G01 X-12.7561 Y-11.5602 
G01 X-12.7843 Y-11.5884 
G01 X-12.7995 Y-11.6251 
G01 X-12.7995 Y-12.2649 
G01 X-12.7843 Y-12.3016 
G01 X-12.7561 Y-12.3298 
G01 X-12.7194 Y-12.3450 
G01 X-11.3846 Y-12.3450 
G01 X-11.3479 Y-12.3298 
G00 Z1.0000 
G00 X-11.3479 Y-11.5298 
G01 Z-0.1200 F50.00 
G01 X-11.3197 Y-11.5016 F100.00 
G01 X-11.3045 Y-11.4649 
G01 X-11.3045 Y-11.4290 
G01 X-10.8002 Y-11.4159 
G01 X-10.7733 Y-11.4175 
G01 X-10.7604 Y-11.4149 
G01 X-10.7473 Y-11.4146 
G01 X-10.7215 Y-11.4069 
G01 X-10.6951 Y-11.4015 
G01 X-10.6833 Y-11.3957 
G01 X-10.6707 Y-11.3919 
G01 X-10.6478 Y-11.3779 
G01 X-10.6237 Y-11.3658 
G01 X-10.6026 Y-11.3502 
G01 X-10.5841 Y-11.3307 
G01 X-10.5640 Y-11.3129 
G01 X-10.5567 Y-11.3019 
G01 X-10.5348 Y-11.2687 
G01 X-10.5200 Y-11.2462 
G01 X-10.5158 Y-11.2338 
G01 X-10.5095 Y-11.2222 
G01 X-10.5032 Y-11.1960 
G01 X-10.1996 Y-10.2850 
G01 X-10.1870 Y-10.2472 
G01 X-10.1772 Y-10.2180 
G01 X-10.1743 Y-10.1999 
G01 X-10.1743 Y-10.1691 
G01 X-10.1725 Y-10.1383 
G01 X-10.1743 Y-7.9466 
G01 X-10.1725 Y-7.9158 
G01 X-10.1743 Y-7.8976 
G01 X-10.1823 Y-7.8678 
G01 X-10.1885 Y-7.8376 
G01 X-10.1950 Y-7.8205 
G01 X-10.2104 Y-7.7938 
G01 X-11.1268 Y-5.9609 
G01 X-11.1268 Y-2.8093 
G01 X-11.1061 Y-2.7885 
G01 X-11.0528 Y-2.6962 
G01 X-11.0252 Y-2.5933 
G01 X-11.0252 Y-2.4867 
G01 X-11.0528 Y-2.3838 
G01 X-11.1061 Y-2.2914 
G01 X-11.8063 Y-1.5913 
G01 X-11.8063 Y-0.2976 
G01 X-11.8215 Y-0.2609 
G01 X-11.8496 Y-0.2327 
G01 X-11.8864 Y-0.2175 
G01 X-13.5136 Y-0.2175 
G01 X-13.5504 Y-0.2327 
G01 X-13.5785 Y-0.2609 
G01 X-13.5937 Y-0.2976 
G01 X-13.5937 Y-2.2424 
G01 X-13.5785 Y-2.2791 
G01 X-13.5504 Y-2.3073 
G01 X-13.5136 Y-2.3225 
G01 X-12.2200 Y-2.3225 
G01 X-11.7332 Y-2.8093 
G01 X-11.7332 Y-6.0234 
G01 X-11.7350 Y-6.0542 
G01 X-11.7332 Y-6.0724 
G01 X-11.7252 Y-6.1022 
G01 X-11.7190 Y-6.1324 
G01 X-11.7125 Y-6.1495 
G01 X-11.6971 Y-6.1762 
G01 X-10.7807 Y-8.0091 
G01 X-10.7807 Y-10.1108 
G01 X-11.0154 Y-10.8149 
G01 X-11.3056 Y-10.8224 
G01 X-11.3197 Y-10.7884 
G01 X-11.3479 Y-10.7602 
G01 X-11.3846 Y-10.7450 
G01 X-12.7194 Y-10.7450 
G01 X-12.7561 Y-10.7602 
G01 X-12.7843 Y-10.7884 
G01 X-12.7995 Y-10.8251 
G01 X-12.7995 Y-11.4649 
G01 X-12.7843 Y-11.5016 
G01 X-12.7561 Y-11.5298 
G01 X-12.7194 Y-11.5450 
G01 X-11.3846 Y-11.5450 
G01 X-11.3479 Y-11.5298 
G00 Z1.0000 
G00 X-11.3479 Y-10.7298 
G01 Z-0.1200 F50.00 
G01 X-11.3197 Y-10.7016 F100.00 
G01 X-11.3045 Y-10.6649 
G01 X-11.3045 Y-10.0251 
G01 X-11.3197 Y-9.9884 
G01 X-11.3479 Y-9.9602 
G01 X-11.3846 Y-9.9450 
G01 X-12.7194 Y-9.9450 
G01 X-12.7561 Y-9.9602 
G01 X-12.7843 Y-9.9884 
G01 X-12.7995 Y-10.0251 
G01 X-12.7995 Y-10.6649 
G01 X-12.7843 Y-10.7016 
G01 X-12.7561 Y-10.7298 
G01 X-12.7194 Y-10.7450 
G01 X-11.3846 Y-10.7450 
G01 X-11.3479 Y-10.7298 
G00 Z1.0000 
G00 X-11.3479 Y-9.9298 
G01 Z-0.1200 F50.00 
G01 X-11.3197 Y-9.9016 F100.00 
G01 X-11.3045 Y-9.8649 
G01 X-11.3045 Y-9.2251 
G01 X-11.3197 Y-9.1884 
G01 X-11.3479 Y-9.1602 
G01 X-11.3846 Y-9.1450 
G01 X-12.7194 Y-9.1450 
G01 X-12.7561 Y-9.1602 
G01 X-12.7843 Y-9.1884 
G01 X-12.7995 Y-9.2251 
G01 X-12.7995 Y-9.8649 
G01 X-12.7843 Y-9.9016 
G01 X-12.7561 Y-9.9298 
G01 X-12.7194 Y-9.9450 
G01 X-11.3846 Y-9.9450 
G01 X-11.3479 Y-9.9298 
G00 Z1.0000 
G00 X-11.3479 Y-9.1298 
G01 Z-0.1200 F50.00 
G01 X-11.3197 Y-9.1016 F100.00 
G01 X-11.3045 Y-9.0649 
G01 X-11.3045 Y-8.4251 
G01 X-11.3197 Y-8.3884 
G01 X-11.3479 Y-8.3602 
G01 X-11.3846 Y-8.3450 
G01 X-12.7194 Y-8.3450 
G01 X-12.7561 Y-8.3602 
G01 X-12.7843 Y-8.3884 
G01 X-12.7995 Y-8.4251 
G01 X-12.7995 Y-9.0649 
G01 X-12.7843 Y-9.1016 
G01 X-12.7561 Y-9.1298 
G01 X-12.7194 Y-9.1450 
G01 X-11.3846 Y-9.1450 
G01 X-11.3479 Y-9.1298 
G00 Z1.0000 
G00 X-11.0385 Y-2.2791 
G01 Z-0.1200 F50.00 
G01 X-11.0104 Y-2.3073 F100.00 
G01 X-10.9736 Y-2.3225 
G01 X-9.3464 Y-2.3225 
G01 X-9.3096 Y-2.3073 
G01 X-9.2815 Y-2.2791 
G01 X-9.2662 Y-2.2424 
G01 X-9.2662 Y-0.2976 
G01 X-9.2815 Y-0.2609 
G01 X-9.3096 Y-0.2327 
G01 X-9.3464 Y-0.2175 
G01 X-10.9736 Y-0.2175 
G01 X-11.0104 Y-0.2327 
G01 X-11.0385 Y-0.2609 
G01 X-11.0537 Y-0.2976 
G01 X-11.0537 Y-2.2424 
G01 X-11.0385 Y-2.2791 
G00 Z1.0000 
G00 X-18.7261 Y-2.2914 
G01 Z-0.1200 F50.00 
G01 X-19.4262 Y-1.5913 F100.00 
G01 X-19.4262 Y-0.2976 
G01 X-19.4415 Y-0.2609 
G01 X-19.4696 Y-0.2327 
G01 X-19.5064 Y-0.2175 
G01 X-21.1336 Y-0.2175 
G01 X-21.1704 Y-0.2327 
G01 X-21.1985 Y-0.2609 
G01 X-21.2137 Y-0.2976 
G01 X-21.2137 Y-2.2424 
G01 X-21.1985 Y-2.2791 
G01 X-21.1704 Y-2.3073 
G01 X-21.1336 Y-2.3225 
G01 X-19.8400 Y-2.3225 
G01 X-19.3532 Y-2.8093 
G01 X-19.3532 Y-5.9609 
G01 X-20.2696 Y-7.7938 
G01 X-20.2850 Y-7.8205 
G01 X-20.2915 Y-7.8376 
G01 X-20.2977 Y-7.8678 
G01 X-20.3057 Y-7.8976 
G01 X-20.3075 Y-7.9158 
G01 X-20.3057 Y-7.9466 
G01 X-20.3057 Y-12.5580 
G01 X-22.0220 Y-13.9882 
G01 X-22.7647 Y-14.0149 
G01 X-22.7757 Y-13.9884 
G01 X-22.8039 Y-13.9602 
G01 X-22.8406 Y-13.9450 
G01 X-24.1754 Y-13.9450 
G01 X-24.2121 Y-13.9602 
G01 X-24.2403 Y-13.9884 
G01 X-24.2555 Y-14.0251 
G01 X-24.2555 Y-14.6649 
G01 X-24.2403 Y-14.7016 
G01 X-24.2121 Y-14.7298 
G01 X-24.1754 Y-14.7450 
G01 X-22.8406 Y-14.7450 
G01 X-22.8039 Y-14.7298 
G01 X-22.7757 Y-14.7016 
G01 X-22.7605 Y-14.6649 
G01 X-22.7605 Y-14.6215 
G01 X-21.9158 Y-14.5912 
G01 X-21.8952 Y-14.5931 
G01 X-21.8761 Y-14.5898 
G01 X-21.8567 Y-14.5891 
G01 X-21.8369 Y-14.5830 
G01 X-21.8165 Y-14.5795 
G01 X-21.7989 Y-14.5713 
G01 X-21.7804 Y-14.5656 
G01 X-21.7629 Y-14.5547 
G01 X-21.7441 Y-14.5460 
G01 X-21.7292 Y-14.5336 
G01 X-21.7127 Y-14.5233 
G01 X-21.6986 Y-14.5081 
G01 X-19.8284 Y-12.9496 
G01 X-19.8163 Y-12.9426 
G01 X-19.7978 Y-12.9241 
G01 X-19.7777 Y-12.9074 
G01 X-19.7697 Y-12.8960 
G01 X-19.7468 Y-12.8635 
G01 X-19.7317 Y-12.8421 
G01 X-19.7269 Y-12.8291 
G01 X-19.7200 Y-12.8170 
G01 X-19.7132 Y-12.7918 
G01 X-19.7042 Y-12.7672 
G01 X-19.7029 Y-12.7533 
G01 X-19.6993 Y-12.7399 
G01 X-19.6993 Y-12.7137 
G01 X-19.6969 Y-12.6877 
G01 X-19.6993 Y-12.6740 
G01 X-19.6993 Y-8.0091 
G01 X-18.7829 Y-6.1762 
G01 X-18.7675 Y-6.1495 
G01 X-18.7610 Y-6.1324 
G01 X-18.7548 Y-6.1022 
G01 X-18.7468 Y-6.0724 
G01 X-18.7450 Y-6.0542 
G01 X-18.7468 Y-6.0234 
G01 X-18.7468 Y-2.8093 
G01 X-18.7261 Y-2.7885 
G01 X-18.6728 Y-2.6962 
G01 X-18.6452 Y-2.5933 
G01 X-18.6452 Y-2.4867 
G01 X-18.6728 Y-2.3838 
G01 X-18.7261 Y-2.2914 
G00 Z1.0000 
G00 X-19.4415 Y-2.8009 
G01 Z-0.1200 F50.00 
G01 X-19.4696 Y-2.7727 F100.00 
G01 X-19.5064 Y-2.7575 
G01 X-21.1336 Y-2.7575 
G01 X-21.1704 Y-2.7727 
G01 X-21.1985 Y-2.8009 
G01 X-21.2137 Y-2.8376 
G01 X-21.2137 Y-4.7824 
G01 X-21.1985 Y-4.8191 
G01 X-21.1704 Y-4.8473 
G01 X-21.1336 Y-4.8625 
G01 X-20.7248 Y-4.8625 
G01 X-20.7248 Y-6.0858 
G01 X-20.6972 Y-6.1887 
G01 X-20.6793 Y-6.2197 
G01 X-20.9310 Y-7.2265 
G01 X-20.9407 Y-7.2626 
G01 X-20.9407 Y-7.3050 
G01 X-20.9407 Y-11.9394 
G01 X-22.0491 Y-13.0478 
G01 X-22.8284 Y-13.1500 
G01 X-22.8406 Y-13.1450 
G01 X-24.1754 Y-13.1450 
G01 X-24.2121 Y-13.1602 
G01 X-24.2403 Y-13.1884 
G01 X-24.2555 Y-13.2251 
G01 X-24.2555 Y-13.8649 
G01 X-24.2403 Y-13.9016 
G01 X-24.2121 Y-13.9298 
G01 X-24.1754 Y-13.9450 
G01 X-22.8406 Y-13.9450 
G01 X-22.8039 Y-13.9298 
G01 X-22.7757 Y-13.9016 
G01 X-22.7605 Y-13.8649 
G01 X-22.7605 Y-13.7527 
G01 X-21.8877 Y-13.6382 
G01 X-21.8676 Y-13.6382 
G01 X-21.8483 Y-13.6330 
G01 X-21.8285 Y-13.6304 
G01 X-21.8099 Y-13.6227 
G01 X-21.7905 Y-13.6175 
G01 X-21.7732 Y-13.6075 
G01 X-21.7547 Y-13.5999 
G01 X-21.7387 Y-13.5877 
G01 X-21.7213 Y-13.5776 
G01 X-21.7072 Y-13.5635 
G01 X-21.6913 Y-13.5513 
G01 X-21.6791 Y-13.5354 
G01 X-20.3949 Y-12.2512 
G01 X-20.3550 Y-12.1820 
G01 X-20.3343 Y-12.1049 
G01 X-20.3343 Y-7.3398 
G01 X-20.0913 Y-6.3679 
G01 X-20.0714 Y-6.3564 
G01 X-19.9961 Y-6.2810 
G01 X-19.9428 Y-6.1887 
G01 X-19.9152 Y-6.0858 
G01 X-19.9152 Y-4.8625 
G01 X-19.5064 Y-4.8625 
G01 X-19.4696 Y-4.8473 
G01 X-19.4415 Y-4.8191 
G01 X-19.4262 Y-4.7824 
G01 X-19.4262 Y-2.8376 
G01 X-19.4415 Y-2.8009 
G00 Z1.0000 
G00 X-21.2661 Y-2.7885 
G01 Z-0.1200 F50.00 
G01 X-21.2128 Y-2.6962 F100.00 
G01 X-21.1852 Y-2.5933 
G01 X-21.1852 Y-2.4867 
G01 X-21.2128 Y-2.3838 
G01 X-21.2661 Y-2.2914 
G01 X-21.9662 Y-1.5913 
G01 X-21.9662 Y-0.2976 
G01 X-21.9815 Y-0.2609 
G01 X-22.0096 Y-0.2327 
G01 X-22.0464 Y-0.2175 
G01 X-23.6736 Y-0.2175 
G01 X-23.7104 Y-0.2327 
G01 X-23.7385 Y-0.2609 
G01 X-23.7537 Y-0.2976 
G01 X-23.7537 Y-2.2424 
G01 X-23.7385 Y-2.2791 
G01 X-23.7104 Y-2.3073 
G01 X-23.6736 Y-2.3225 
G01 X-22.3800 Y-2.3225 
G01 X-21.8932 Y-2.8093 
G01 X-21.8932 Y-11.9394 
G01 X-22.3550 Y-12.4012 
G01 X-22.7645 Y-12.4155 
G01 X-22.7757 Y-12.3884 
G01 X-22.8039 Y-12.3602 
G01 X-22.8406 Y-12.3450 
G01 X-24.1754 Y-12.3450 
G01 X-24.2121 Y-12.3602 
G01 X-24.2403 Y-12.3884 
G01 X-24.2555 Y-12.4251 
G01 X-24.2555 Y-13.0649 
G01 X-24.2403 Y-13.1016 
G01 X-24.2121 Y-13.1298 
G01 X-24.1754 Y-13.1450 
G01 X-22.8406 Y-13.1450 
G01 X-22.8039 Y-13.1298 
G01 X-22.7757 Y-13.1016 
G01 X-22.7605 Y-13.0649 
G01 X-22.7605 Y-13.0222 
G01 X-22.2197 Y-13.0032 
G01 X-22.1851 Y-13.0032 
G01 X-22.1745 Y-13.0016 
G01 X-22.1414 Y-12.9915 
G01 X-22.1080 Y-12.9825 
G01 X-22.0688 Y-12.9599 
G01 X-22.0388 Y-12.9426 
G01 X-22.0069 Y-12.9107 
G01 X-21.3474 Y-12.2512 
G01 X-21.3075 Y-12.1820 
G01 X-21.2868 Y-12.1049 
G01 X-21.2868 Y-2.8093 
G01 X-21.2661 Y-2.7885 
G00 Z1.0000 
G00 X-21.9815 Y-2.8009 
G01 Z-0.1200 F50.00 
G01 X-22.0096 Y-2.7727 F100.00 
G01 X-22.0464 Y-2.7575 
G01 X-23.6736 Y-2.7575 
G01 X-23.7104 Y-2.7727 
G01 X-23.7385 Y-2.8009 
G01 X-23.7537 Y-2.8376 
G01 X-23.7537 Y-4.7824 
G01 X-23.7385 Y-4.8191 
G01 X-23.7104 Y-4.8473 
G01 X-23.6736 Y-4.8625 
G01 X-23.2648 Y-4.8625 
G01 X-23.2648 Y-6.4033 
G01 X-23.2372 Y-6.5062 
G01 X-23.1839 Y-6.5986 
G01 X-23.1086 Y-6.6739 
G01 X-23.0415 Y-6.7126 
G01 X-22.5282 Y-7.9959 
G01 X-22.5282 Y-11.3584 
G01 X-22.7178 Y-11.7377 
G01 X-22.7605 Y-11.7324 
G01 X-22.7605 Y-11.6251 
G01 X-22.7757 Y-11.5884 
G01 X-22.8039 Y-11.5602 
G01 X-22.8406 Y-11.5450 
G01 X-24.1754 Y-11.5450 
G01 X-24.2121 Y-11.5602 
G01 X-24.2403 Y-11.5884 
G01 X-24.2555 Y-11.6251 
G01 X-24.2555 Y-12.2649 
G01 X-24.2403 Y-12.3016 
G01 X-24.2121 Y-12.3298 
G01 X-24.1754 Y-12.3450 
G01 X-22.8406 Y-12.3450 
G01 X-22.8192 Y-12.3361 
G01 X-22.5916 Y-12.3644 
G01 X-22.5642 Y-12.3700 
G01 X-22.5522 Y-12.3693 
G01 X-22.5403 Y-12.3708 
G01 X-22.5125 Y-12.3669 
G01 X-22.4845 Y-12.3653 
G01 X-22.4731 Y-12.3615 
G01 X-22.4612 Y-12.3598 
G01 X-22.4354 Y-12.3489 
G01 X-22.4088 Y-12.3400 
G01 X-22.3987 Y-12.3334 
G01 X-22.3877 Y-12.3287 
G01 X-22.3655 Y-12.3115 
G01 X-22.3421 Y-12.2960 
G01 X-22.3247 Y-12.2797 
G01 X-22.3078 Y-12.2573 
G01 X-22.2892 Y-12.2363 
G01 X-22.2838 Y-12.2256 
G01 X-22.2660 Y-12.1900 
G01 X-21.9579 Y-11.5737 
G01 X-21.9425 Y-11.5470 
G01 X-21.9360 Y-11.5299 
G01 X-21.9298 Y-11.4997 
G01 X-21.9218 Y-11.4699 
G01 X-21.9200 Y-11.4517 
G01 X-21.9218 Y-11.4209 
G01 X-21.9218 Y-7.9592 
G01 X-21.9192 Y-7.9412 
G01 X-21.9218 Y-7.9195 
G01 X-21.9218 Y-7.8976 
G01 X-21.9265 Y-7.8800 
G01 X-21.9287 Y-7.8620 
G01 X-21.9368 Y-7.8416 
G01 X-21.9425 Y-7.8205 
G01 X-21.9516 Y-7.8047 
G01 X-22.4780 Y-6.4885 
G01 X-22.4552 Y-6.4033 
G01 X-22.4552 Y-4.8625 
G01 X-22.0464 Y-4.8625 
G01 X-22.0096 Y-4.8473 
G01 X-21.9815 Y-4.8191 
G01 X-21.9662 Y-4.7824 
G01 X-21.9662 Y-2.8376 
G01 X-21.9815 Y-2.8009 
G00 Z1.0000 
G00 X-23.8061 Y-2.7885 
G01 Z-0.1200 F50.00 
G01 X-23.7528 Y-2.6962 F100.00 
G01 X-23.7252 Y-2.5933 
G01 X-23.7252 Y-2.4867 
G01 X-23.7528 Y-2.3838 
G01 X-23.8061 Y-2.2914 
G01 X-24.5063 Y-1.5913 
G01 X-24.5063 Y-0.2976 
G01 X-24.5215 Y-0.2609 
G01 X-24.5496 Y-0.2327 
G01 X-24.5864 Y-0.2175 
G01 X-26.2136 Y-0.2175 
G01 X-26.2504 Y-0.2327 
G01 X-26.2785 Y-0.2609 
G01 X-26.2937 Y-0.2976 
G01 X-26.2937 Y-2.2424 
G01 X-26.2785 Y-2.2791 
G01 X-26.2504 Y-2.3073 
G01 X-26.2136 Y-2.3225 
G01 X-24.9200 Y-2.3225 
G01 X-24.4332 Y-2.8093 
G01 X-24.4332 Y-5.6528 
G01 X-25.3541 Y-7.8015 
G01 X-25.3650 Y-7.8205 
G01 X-25.3697 Y-7.8380 
G01 X-25.3769 Y-7.8548 
G01 X-25.3800 Y-7.8764 
G01 X-25.3857 Y-7.8976 
G01 X-25.3857 Y-7.9158 
G01 X-25.3883 Y-7.9338 
G01 X-25.3857 Y-7.9555 
G01 X-25.3857 Y-9.8824 
G01 X-25.3650 Y-9.9595 
G01 X-25.3251 Y-10.0287 
G01 X-24.8232 Y-10.5306 
G01 X-24.7982 Y-10.5569 
G01 X-24.7610 Y-10.5795 
G01 X-24.7300 Y-10.5984 
G01 X-24.6882 Y-10.6107 
G01 X-24.6534 Y-10.6209 
G01 X-24.6099 Y-10.6219 
G01 X-24.2555 Y-10.6304 
G01 X-24.2555 Y-10.6649 
G01 X-24.2403 Y-10.7016 
G01 X-24.2121 Y-10.7298 
G01 X-24.1754 Y-10.7450 
G01 X-22.8406 Y-10.7450 
G01 X-22.8039 Y-10.7298 
G01 X-22.7757 Y-10.7016 
G01 X-22.7605 Y-10.6649 
G01 X-22.7605 Y-10.0251 
G01 X-22.7757 Y-9.9884 
G01 X-22.8039 Y-9.9602 
G01 X-22.8406 Y-9.9450 
G01 X-24.1754 Y-9.9450 
G01 X-24.2121 Y-9.9602 
G01 X-24.2403 Y-9.9884 
G01 X-24.2550 Y-10.0239 
G01 X-24.4777 Y-10.0185 
G01 X-24.7793 Y-9.7169 
G01 X-24.7793 Y-7.9997 
G01 X-23.8584 Y-5.8510 
G01 X-23.8475 Y-5.8320 
G01 X-23.8428 Y-5.8145 
G01 X-23.8356 Y-5.7977 
G01 X-23.8325 Y-5.7761 
G01 X-23.8268 Y-5.7549 
G01 X-23.8268 Y-5.7367 
G01 X-23.8242 Y-5.7187 
G01 X-23.8268 Y-5.6970 
G01 X-23.8268 Y-2.8093 
G01 X-23.8061 Y-2.7885 
G00 Z1.0000 
G00 X-24.5215 Y-2.8009 
G01 Z-0.1200 F50.00 
G01 X-24.5496 Y-2.7727 F100.00 
G01 X-24.5864 Y-2.7575 
G01 X-26.2136 Y-2.7575 
G01 X-26.2504 Y-2.7727 
G01 X-26.2785 Y-2.8009 
G01 X-26.2937 Y-2.8376 
G01 X-26.2937 Y-4.7824 
G01 X-26.2785 Y-4.8191 
G01 X-26.2504 Y-4.8473 
G01 X-26.2136 Y-4.8625 
G01 X-25.8048 Y-4.8625 
G01 X-25.8048 Y-5.7683 
G01 X-25.7772 Y-5.8712 
G01 X-25.7432 Y-5.9301 
G01 X-26.0142 Y-7.5557 
G01 X-26.0207 Y-7.5801 
G01 X-26.0207 Y-7.5949 
G01 X-26.0231 Y-7.6095 
G01 X-26.0207 Y-7.6347 
G01 X-26.0207 Y-10.2927 
G01 X-26.0231 Y-10.3064 
G01 X-26.0207 Y-10.3325 
G01 X-26.0207 Y-10.3587 
G01 X-26.0171 Y-10.3721 
G01 X-26.0158 Y-10.3860 
G01 X-26.0068 Y-10.4105 
G01 X-26.0000 Y-10.4358 
G01 X-25.9931 Y-10.4478 
G01 X-25.9883 Y-10.4609 
G01 X-25.9732 Y-10.4822 
G01 X-25.9601 Y-10.5049 
G01 X-25.9423 Y-10.5261 
G01 X-25.9222 Y-10.5429 
G01 X-25.9037 Y-10.5614 
G01 X-25.8916 Y-10.5683 
G01 X-24.9727 Y-11.3341 
G01 X-24.9574 Y-11.3502 
G01 X-24.9421 Y-11.3595 
G01 X-24.9284 Y-11.3710 
G01 X-24.9083 Y-11.3803 
G01 X-24.8893 Y-11.3919 
G01 X-24.8722 Y-11.3970 
G01 X-24.8560 Y-11.4045 
G01 X-24.8341 Y-11.4083 
G01 X-24.8127 Y-11.4146 
G01 X-24.7949 Y-11.4150 
G01 X-24.7773 Y-11.4181 
G01 X-24.7552 Y-11.4161 
G01 X-24.2555 Y-11.4290 
G01 X-24.2555 Y-11.4649 
G01 X-24.2403 Y-11.5016 
G01 X-24.2121 Y-11.5298 
G01 X-24.1754 Y-11.5450 
G01 X-22.8406 Y-11.5450 
G01 X-22.8039 Y-11.5298 
G01 X-22.7757 Y-11.5016 
G01 X-22.7605 Y-11.4649 
G01 X-22.7605 Y-10.8251 
G01 X-22.7757 Y-10.7884 
G01 X-22.8039 Y-10.7602 
G01 X-22.8406 Y-10.7450 
G01 X-24.1754 Y-10.7450 
G01 X-24.2121 Y-10.7602 
G01 X-24.2403 Y-10.7884 
G01 X-24.2544 Y-10.8224 
G01 X-24.6518 Y-10.8121 
G01 X-25.4143 Y-10.1767 
G01 X-25.4143 Y-7.6451 
G01 X-25.1456 Y-6.0331 
G01 X-25.0761 Y-5.9635 
G01 X-25.0228 Y-5.8712 
G01 X-24.9952 Y-5.7683 
G01 X-24.9952 Y-4.8625 
G01 X-24.5864 Y-4.8625 
G01 X-24.5496 Y-4.8473 
G01 X-24.5215 Y-4.8191 
G01 X-24.5063 Y-4.7824 
G01 X-24.5063 Y-2.8376 
G01 X-24.5215 Y-2.8009 
G00 Z1.0000 
G00 X-26.3461 Y-2.7885 
G01 Z-0.1200 F50.00 
G01 X-26.2928 Y-2.6962 F100.00 
G01 X-26.2652 Y-2.5933 
G01 X-26.2652 Y-2.4867 
G01 X-26.2928 Y-2.3838 
G01 X-26.3461 Y-2.2914 
G01 X-27.0463 Y-1.5913 
G01 X-27.0463 Y-0.2976 
G01 X-27.0615 Y-0.2609 
G01 X-27.0896 Y-0.2327 
G01 X-27.1264 Y-0.2175 
G01 X-28.7536 Y-0.2175 
G01 X-28.7904 Y-0.2327 
G01 X-28.8185 Y-0.2609 
G01 X-28.8337 Y-0.2976 
G01 X-28.8337 Y-2.2424 
G01 X-28.8185 Y-2.2791 
G01 X-28.7904 Y-2.3073 
G01 X-28.7536 Y-2.3225 
G01 X-27.4600 Y-2.3225 
G01 X-26.9732 Y-2.8093 
G01 X-26.9732 Y-10.2828 
G01 X-26.9732 Y-10.3227 
G01 X-26.9732 Y-10.3587 
G01 X-26.9619 Y-10.4010 
G01 X-26.9525 Y-10.4358 
G01 X-26.9306 Y-10.4737 
G01 X-26.9126 Y-10.5049 
G01 X-26.8817 Y-10.5358 
G01 X-26.8562 Y-10.5614 
G01 X-25.3857 Y-11.9570 
G01 X-25.3857 Y-14.2542 
G01 X-25.3857 Y-14.2941 
G01 X-25.3857 Y-14.3274 
G01 X-25.3837 Y-14.3405 
G01 X-25.3737 Y-14.3723 
G01 X-25.3650 Y-14.4045 
G01 X-25.3597 Y-14.4166 
G01 X-25.3418 Y-14.4447 
G01 X-25.3251 Y-14.4737 
G01 X-24.7849 Y-15.3199 
G01 X-24.7666 Y-15.3505 
G01 X-24.7349 Y-15.3812 
G01 X-24.7093 Y-15.4061 
G01 X-24.6708 Y-15.4275 
G01 X-24.6396 Y-15.4449 
G01 X-24.5967 Y-15.4557 
G01 X-24.5621 Y-15.4644 
G01 X-24.5179 Y-15.4637 
G01 X-24.2555 Y-15.4597 
G01 X-24.2403 Y-15.5016 
G01 X-24.2121 Y-15.5298 
G01 X-24.1754 Y-15.5450 
G01 X-22.8406 Y-15.5450 
G01 X-22.8039 Y-15.5298 
G01 X-22.7757 Y-15.5016 
G01 X-22.7605 Y-15.4649 
G01 X-22.7605 Y-14.8251 
G01 X-22.7757 Y-14.7884 
G01 X-22.8039 Y-14.7602 
G01 X-22.8406 Y-14.7450 
G01 X-24.1754 Y-14.7450 
G01 X-24.2121 Y-14.7602 
G01 X-24.2403 Y-14.7884 
G01 X-24.2555 Y-14.8251 
G01 X-24.2555 Y-14.8532 
G01 X-24.3621 Y-14.8549 
G01 X-24.7793 Y-14.1992 
G01 X-24.7793 Y-11.8628 
G01 X-24.7793 Y-11.8229 
G01 X-24.7793 Y-11.7870 
G01 X-24.7906 Y-11.7446 
G01 X-24.8000 Y-11.7098 
G01 X-24.8218 Y-11.6719 
G01 X-24.8399 Y-11.6407 
G01 X-24.8708 Y-11.6098 
G01 X-24.8963 Y-11.5843 
G01 X-26.3668 Y-10.1886 
G01 X-26.3668 Y-2.8093 
G01 X-26.3461 Y-2.7885 
G00 Z1.0000 
G00 X-27.0615 Y-2.8009 
G01 Z-0.1200 F50.00 
G01 X-27.0896 Y-2.7727 F100.00 
G01 X-27.1264 Y-2.7575 
G01 X-28.7536 Y-2.7575 
G01 X-28.7904 Y-2.7727 
G01 X-28.8185 Y-2.8009 
G01 X-28.8337 Y-2.8376 
G01 X-28.8337 Y-4.7824 
G01 X-28.8185 Y-4.8191 
G01 X-28.7904 Y-4.8473 
G01 X-28.7536 Y-4.8625 
G01 X-28.3750 Y-4.8625 
G01 X-28.4255 Y-6.6298 
G01 X-28.4009 Y-6.7335 
G01 X-28.3503 Y-6.8273 
G01 X-28.3163 Y-6.8633 
G01 X-28.2432 Y-10.0048 
G01 X-28.2432 Y-10.0412 
G01 X-28.2320 Y-10.0831 
G01 X-28.2225 Y-10.1183 
G01 X-28.2008 Y-10.1558 
G01 X-28.1826 Y-10.1874 
G01 X-28.1520 Y-10.2180 
G01 X-26.0207 Y-12.3493 
G01 X-26.0207 Y-14.9099 
G01 X-26.0230 Y-14.9371 
G01 X-26.0207 Y-14.9497 
G01 X-26.0207 Y-14.9624 
G01 X-26.0136 Y-14.9888 
G01 X-26.0088 Y-15.0157 
G01 X-26.0033 Y-15.0272 
G01 X-26.0000 Y-15.0395 
G01 X-25.9864 Y-15.0632 
G01 X-25.9747 Y-15.0879 
G01 X-25.9601 Y-15.1087 
G01 X-25.9408 Y-15.1280 
G01 X-25.0927 Y-16.1303 
G01 X-25.0857 Y-16.1422 
G01 X-25.0670 Y-16.1607 
G01 X-25.0500 Y-16.1807 
G01 X-25.0387 Y-16.1886 
G01 X-25.0060 Y-16.2113 
G01 X-24.9845 Y-16.2262 
G01 X-24.9714 Y-16.2309 
G01 X-24.9594 Y-16.2377 
G01 X-24.9340 Y-16.2443 
G01 X-24.9093 Y-16.2532 
G01 X-24.8955 Y-16.2544 
G01 X-24.8822 Y-16.2578 
G01 X-24.8559 Y-16.2577 
G01 X-24.8298 Y-16.2598 
G01 X-24.8162 Y-16.2574 
G01 X-24.2555 Y-16.2534 
G01 X-24.2555 Y-16.2649 
G01 X-24.2403 Y-16.3016 
G01 X-24.2121 Y-16.3298 
G01 X-24.1754 Y-16.3450 
G01 X-22.8406 Y-16.3450 
G01 X-22.8039 Y-16.3298 
G01 X-22.7757 Y-16.3016 
G01 X-22.7605 Y-16.2649 
G01 X-22.7605 Y-15.6251 
G01 X-22.7757 Y-15.5884 
G01 X-22.8039 Y-15.5602 
G01 X-22.8406 Y-15.5450 
G01 X-24.1754 Y-15.5450 
G01 X-24.2121 Y-15.5602 
G01 X-24.2403 Y-15.5884 
G01 X-24.2555 Y-15.6251 
G01 X-24.2555 Y-15.6470 
G01 X-24.7046 Y-15.6502 
G01 X-25.4143 Y-14.8114 
G01 X-25.4143 Y-12.1838 
G01 X-25.4350 Y-12.1067 
G01 X-25.4749 Y-12.0376 
G01 X-25.5313 Y-11.9811 
G01 X-27.6397 Y-9.8727 
G01 X-27.7099 Y-6.8527 
G01 X-27.6468 Y-6.7551 
G01 X-27.6163 Y-6.6530 
G01 X-27.5651 Y-4.8625 
G01 X-27.1264 Y-4.8625 
G01 X-27.0896 Y-4.8473 
G01 X-27.0615 Y-4.8191 
G01 X-27.0463 Y-4.7824 
G01 X-27.0463 Y-2.8376 
G01 X-27.0615 Y-2.8009 
G00 Z1.0000 
G00 X-28.8861 Y-2.7885 
G01 Z-0.1200 F50.00 
G01 X-28.8328 Y-2.6962 F100.00 
G01 X-28.8052 Y-2.5933 
G01 X-28.8052 Y-2.4867 
G01 X-28.8328 Y-2.3838 
G01 X-28.8861 Y-2.2914 
G01 X-29.5862 Y-1.5913 
G01 X-29.5862 Y-0.2976 
G01 X-29.6015 Y-0.2609 
G01 X-29.6296 Y-0.2327 
G01 X-29.6664 Y-0.2175 
G01 X-31.2936 Y-0.2175 
G01 X-31.3304 Y-0.2327 
G01 X-31.3585 Y-0.2609 
G01 X-31.3737 Y-0.2976 
G01 X-31.3737 Y-2.2424 
G01 X-31.3585 Y-2.2791 
G01 X-31.3304 Y-2.3073 
G01 X-31.2936 Y-2.3225 
G01 X-30.0000 Y-2.3225 
G01 X-29.5132 Y-2.8093 
G01 X-29.5132 Y-9.6794 
G01 X-29.5142 Y-9.7150 
G01 X-29.5040 Y-9.7580 
G01 X-29.4958 Y-9.7927 
G01 X-29.4747 Y-9.8316 
G01 X-29.4578 Y-9.8629 
G01 X-29.4274 Y-9.8951 
G01 X-26.8093 Y-12.6673 
G01 X-26.6568 Y-16.1729 
G01 X-26.6551 Y-16.2127 
G01 X-26.6537 Y-16.2456 
G01 X-26.6509 Y-16.2594 
G01 X-26.6396 Y-16.2903 
G01 X-26.6297 Y-16.3217 
G01 X-26.6234 Y-16.3343 
G01 X-26.6045 Y-16.3613 
G01 X-26.5868 Y-16.3890 
G01 X-25.1008 Y-18.4981 
G01 X-25.0883 Y-18.5201 
G01 X-25.0779 Y-18.5306 
G01 X-25.0694 Y-18.5428 
G01 X-25.0500 Y-18.5589 
G01 X-25.0322 Y-18.5769 
G01 X-25.0194 Y-18.5844 
G01 X-25.0081 Y-18.5939 
G01 X-24.9852 Y-18.6045 
G01 X-24.9634 Y-18.6173 
G01 X-24.9491 Y-18.6213 
G01 X-24.9356 Y-18.6275 
G01 X-24.9108 Y-18.6318 
G01 X-24.8864 Y-18.6385 
G01 X-24.8716 Y-18.6386 
G01 X-24.8570 Y-18.6412 
G01 X-24.8318 Y-18.6389 
G01 X-24.2555 Y-18.6430 
G01 X-24.2555 Y-18.6649 
G01 X-24.2403 Y-18.7016 
G01 X-24.2121 Y-18.7298 
G01 X-24.1754 Y-18.7450 
G01 X-22.8406 Y-18.7450 
G01 X-22.8039 Y-18.7298 
G01 X-22.7757 Y-18.7016 
G01 X-22.7605 Y-18.6649 
G01 X-22.7605 Y-18.0251 
G01 X-22.7757 Y-17.9884 
G01 X-22.8039 Y-17.9602 
G01 X-22.8406 Y-17.9450 
G01 X-24.1754 Y-17.9450 
G01 X-24.2121 Y-17.9602 
G01 X-24.2403 Y-17.9884 
G01 X-24.2555 Y-18.0251 
G01 X-24.2555 Y-18.0365 
G01 X-24.6862 Y-18.0335 
G01 X-26.0534 Y-16.0906 
G01 X-26.2079 Y-12.5390 
G01 X-26.2070 Y-12.5100 
G01 X-26.2096 Y-12.4993 
G01 X-26.2101 Y-12.4882 
G01 X-26.2188 Y-12.4605 
G01 X-26.2255 Y-12.4323 
G01 X-26.2341 Y-12.4121 
G01 X-26.2496 Y-12.3876 
G01 X-26.2634 Y-12.3621 
G01 X-26.2769 Y-12.3447 
G01 X-26.2983 Y-12.3251 
G01 X-28.9068 Y-9.5632 
G01 X-28.9068 Y-2.8093 
G01 X-28.8861 Y-2.7885 
G00 Z1.0000 
G00 X-29.6015 Y-2.8009 
G01 Z-0.1200 F50.00 
G01 X-29.6296 Y-2.7727 F100.00 
G01 X-29.6664 Y-2.7575 
G01 X-31.2936 Y-2.7575 
G01 X-31.3304 Y-2.7727 
G01 X-31.3585 Y-2.8009 
G01 X-31.3737 Y-2.8376 
G01 X-31.3737 Y-4.7824 
G01 X-31.3585 Y-4.8191 
G01 X-31.3304 Y-4.8473 
G01 X-31.2936 Y-4.8625 
G01 X-30.8848 Y-4.8625 
G01 X-30.8848 Y-6.3239 
G01 X-30.8572 Y-6.4269 
G01 X-30.8039 Y-6.5192 
G01 X-30.7832 Y-6.5399 
G01 X-30.7832 Y-9.5649 
G01 X-30.7625 Y-9.6420 
G01 X-30.7226 Y-9.7112 
G01 X-30.6662 Y-9.7676 
G01 X-27.4445 Y-12.9893 
G01 X-27.2912 Y-16.8219 
G01 X-27.2929 Y-16.8440 
G01 X-27.2896 Y-16.8616 
G01 X-27.2889 Y-16.8795 
G01 X-27.2823 Y-16.9007 
G01 X-27.2782 Y-16.9225 
G01 X-27.2704 Y-16.9386 
G01 X-27.2651 Y-16.9557 
G01 X-27.2533 Y-16.9745 
G01 X-27.2437 Y-16.9945 
G01 X-27.2320 Y-17.0081 
G01 X-27.2225 Y-17.0232 
G01 X-27.2062 Y-17.0383 
G01 X-25.3370 Y-19.2189 
G01 X-25.3111 Y-19.2492 
G01 X-25.2867 Y-19.2776 
G01 X-25.2517 Y-19.3016 
G01 X-25.2209 Y-19.3227 
G01 X-25.1808 Y-19.3368 
G01 X-25.1456 Y-19.3492 
G01 X-25.1032 Y-19.3525 
G01 X-25.0660 Y-19.3554 
G01 X-24.2555 Y-19.4036 
G01 X-24.2555 Y-19.4649 
G01 X-24.2403 Y-19.5016 
G01 X-24.2121 Y-19.5298 
G01 X-24.1754 Y-19.5450 
G01 X-22.8406 Y-19.5450 
G01 X-22.8039 Y-19.5298 
G01 X-22.7757 Y-19.5016 
G01 X-22.7605 Y-19.4649 
G01 X-22.7605 Y-18.8251 
G01 X-22.7757 Y-18.7884 
G01 X-22.8039 Y-18.7602 
G01 X-22.8406 Y-18.7450 
G01 X-24.1754 Y-18.7450 
G01 X-24.2121 Y-18.7602 
G01 X-24.2403 Y-18.7884 
G01 X-24.9359 Y-18.7551 
G01 X-26.6888 Y-16.7101 
G01 X-26.8431 Y-12.8527 
G01 X-26.8431 Y-12.8188 
G01 X-26.8449 Y-12.8067 
G01 X-26.8550 Y-12.7744 
G01 X-26.8637 Y-12.7417 
G01 X-26.8686 Y-12.7305 
G01 X-26.8867 Y-12.7019 
G01 X-26.9036 Y-12.6726 
G01 X-26.9361 Y-12.6401 
G01 X-30.1768 Y-9.3994 
G01 X-30.1768 Y-6.5399 
G01 X-30.1561 Y-6.5192 
G01 X-30.1028 Y-6.4269 
G01 X-30.0752 Y-6.3239 
G01 X-30.0752 Y-4.8625 
G01 X-29.6664 Y-4.8625 
G01 X-29.6296 Y-4.8473 
G01 X-29.6015 Y-4.8191 
G01 X-29.5862 Y-4.7824 
G01 X-29.5862 Y-2.8376 
G01 X-29.6015 Y-2.8009 
G00 Z1.0000 
G00 X-31.4261 Y-2.7885 
G01 Z-0.1200 F50.00 
G01 X-31.3728 Y-2.6962 F100.00 
G01 X-31.3452 Y-2.5933 
G01 X-31.3452 Y-2.4867 
G01 X-31.3728 Y-2.3838 
G01 X-31.4261 Y-2.2914 
G01 X-32.1262 Y-1.5913 
G01 X-32.1262 Y-0.2976 
G01 X-32.1415 Y-0.2609 
G01 X-32.1696 Y-0.2327 
G01 X-32.2064 Y-0.2175 
G01 X-33.8336 Y-0.2175 
G01 X-33.8704 Y-0.2327 
G01 X-33.8985 Y-0.2609 
G01 X-33.9137 Y-0.2976 
G01 X-33.9137 Y-2.2424 
G01 X-33.8985 Y-2.2791 
G01 X-33.8704 Y-2.3073 
G01 X-33.8336 Y-2.3225 
G01 X-32.5400 Y-2.3225 
G01 X-32.0532 Y-2.8093 
G01 X-32.0532 Y-9.2474 
G01 X-32.0325 Y-9.3245 
G01 X-31.9926 Y-9.3937 
G01 X-28.0798 Y-13.3065 
G01 X-27.9256 Y-17.4705 
G01 X-27.9250 Y-17.5072 
G01 X-27.9132 Y-17.5487 
G01 X-27.9031 Y-17.5840 
G01 X-27.8810 Y-17.6210 
G01 X-27.8621 Y-17.6525 
G01 X-27.8311 Y-17.6825 
G01 X-25.2967 Y-20.1377 
G01 X-25.2720 Y-20.1631 
G01 X-25.2339 Y-20.1859 
G01 X-25.2034 Y-20.2040 
G01 X-25.1607 Y-20.2161 
G01 X-25.1266 Y-20.2257 
G01 X-25.0822 Y-20.2264 
G01 X-24.2555 Y-20.2378 
G01 X-24.2555 Y-20.2649 
G01 X-24.2403 Y-20.3016 
G01 X-24.2121 Y-20.3298 
G01 X-24.1754 Y-20.3450 
G01 X-22.8406 Y-20.3450 
G01 X-22.8039 Y-20.3298 
G01 X-22.7757 Y-20.3016 
G01 X-22.7605 Y-20.2649 
G01 X-22.7605 Y-19.6251 
G01 X-22.7757 Y-19.5884 
G01 X-22.8039 Y-19.5602 
G01 X-22.8406 Y-19.5450 
G01 X-24.1754 Y-19.5450 
G01 X-24.2121 Y-19.5602 
G01 X-24.2403 Y-19.5884 
G01 X-24.2555 Y-19.6251 
G01 X-24.9580 Y-19.6216 
G01 X-27.3240 Y-17.3295 
G01 X-27.4780 Y-13.1706 
G01 X-27.4780 Y-13.1363 
G01 X-27.4797 Y-13.1251 
G01 X-27.4898 Y-13.0923 
G01 X-27.4987 Y-13.0592 
G01 X-27.5032 Y-13.0488 
G01 X-27.5215 Y-13.0198 
G01 X-27.5386 Y-12.9901 
G01 X-27.5708 Y-12.9579 
G01 X-31.4468 Y-9.0819 
G01 X-31.4468 Y-2.8093 
G01 X-31.4261 Y-2.7885 
G00 Z1.0000 
G00 X-32.1415 Y-2.8009 
G01 Z-0.1200 F50.00 
G01 X-32.1696 Y-2.7727 F100.00 
G01 X-32.2064 Y-2.7575 
G01 X-33.8336 Y-2.7575 
G01 X-33.8704 Y-2.7727 
G01 X-33.8985 Y-2.8009 
G01 X-33.9137 Y-2.8376 
G01 X-33.9137 Y-4.7824 
G01 X-33.8985 Y-4.8191 
G01 X-33.8704 Y-4.8473 
G01 X-33.8336 Y-4.8625 
G01 X-33.4626 Y-4.8625 
G01 X-33.5058 Y-6.0713 
G01 X-33.4819 Y-6.1752 
G01 X-33.4320 Y-6.2693 
G01 X-33.3593 Y-6.3473 
G01 X-32.8472 Y-9.3111 
G01 X-32.8473 Y-9.3239 
G01 X-32.8405 Y-9.3504 
G01 X-32.8359 Y-9.3773 
G01 X-32.8306 Y-9.3888 
G01 X-32.8274 Y-9.4012 
G01 X-32.8140 Y-9.4250 
G01 X-32.8026 Y-9.4498 
G01 X-32.7881 Y-9.4707 
G01 X-32.7690 Y-9.4902 
G01 X-32.7516 Y-9.5112 
G01 X-32.7412 Y-9.5186 
G01 X-28.7152 Y-13.6220 
G01 X-28.5618 Y-18.0713 
G01 X-28.5604 Y-18.1111 
G01 X-28.5591 Y-18.1478 
G01 X-28.5465 Y-18.1891 
G01 X-28.5358 Y-18.2242 
G01 X-28.5130 Y-18.2608 
G01 X-28.4936 Y-18.2919 
G01 X-28.4621 Y-18.3213 
G01 X-28.4352 Y-18.3464 
G01 X-25.4464 Y-21.0196 
G01 X-25.4202 Y-21.0443 
G01 X-25.3816 Y-21.0651 
G01 X-25.3499 Y-21.0821 
G01 X-25.3072 Y-21.0922 
G01 X-25.2722 Y-21.1005 
G01 X-25.2284 Y-21.0992 
G01 X-24.2532 Y-21.0704 
G01 X-24.2403 Y-21.1016 
G01 X-24.2121 Y-21.1298 
G01 X-24.1754 Y-21.1450 
G01 X-22.8406 Y-21.1450 
G01 X-22.8039 Y-21.1298 
G01 X-22.7757 Y-21.1016 
G01 X-22.7605 Y-21.0649 
G01 X-22.7605 Y-20.4251 
G01 X-22.7757 Y-20.3884 
G01 X-22.8039 Y-20.3602 
G01 X-22.8406 Y-20.3450 
G01 X-24.1754 Y-20.3450 
G01 X-24.2121 Y-20.3602 
G01 X-24.2403 Y-20.3884 
G01 X-24.2555 Y-20.4251 
G01 X-24.2555 Y-20.4638 
G01 X-25.1293 Y-20.4896 
G01 X-27.9589 Y-17.9578 
G01 X-28.1130 Y-13.4900 
G01 X-28.1127 Y-13.4567 
G01 X-28.1146 Y-13.4434 
G01 X-28.1243 Y-13.4116 
G01 X-28.1326 Y-13.3794 
G01 X-28.1379 Y-13.3671 
G01 X-28.1555 Y-13.3388 
G01 X-28.1719 Y-13.3099 
G01 X-28.1802 Y-13.2993 
G01 X-28.2045 Y-13.2766 
G01 X-32.2608 Y-9.1423 
G01 X-32.7554 Y-6.2459 
G01 X-32.7280 Y-6.2021 
G01 X-32.6967 Y-6.1002 
G01 X-32.6525 Y-4.8625 
G01 X-32.2064 Y-4.8625 
G01 X-32.1696 Y-4.8473 
G01 X-32.1415 Y-4.8191 
G01 X-32.1262 Y-4.7824 
G01 X-32.1262 Y-2.8376 
G01 X-32.1415 Y-2.8009 
G00 Z1.0000 
G00 X-33.9661 Y-2.7885 
G01 Z-0.1200 F50.00 
G01 X-33.9128 Y-2.6962 F100.00 
G01 X-33.8852 Y-2.5933 
G01 X-33.8852 Y-2.4867 
G01 X-33.9128 Y-2.3838 
G01 X-33.9661 Y-2.2914 
G01 X-34.6662 Y-1.5913 
G01 X-34.6662 Y-0.2976 
G01 X-34.6815 Y-0.2609 
G01 X-34.7096 Y-0.2327 
G01 X-34.7464 Y-0.2175 
G01 X-36.3736 Y-0.2175 
G01 X-36.4104 Y-0.2327 
G01 X-36.4385 Y-0.2609 
G01 X-36.4537 Y-0.2976 
G01 X-36.4537 Y-2.2424 
G01 X-36.4385 Y-2.2791 
G01 X-36.4104 Y-2.3073 
G01 X-36.3736 Y-2.3225 
G01 X-35.0800 Y-2.3225 
G01 X-34.5968 Y-2.8056 
G01 X-34.6724 Y-8.4003 
G01 X-34.6747 Y-8.4308 
G01 X-34.6731 Y-8.4496 
G01 X-34.6656 Y-8.4792 
G01 X-34.6599 Y-8.5092 
G01 X-34.6535 Y-8.5269 
G01 X-34.6385 Y-8.5536 
G01 X-34.6253 Y-8.5812 
G01 X-34.6145 Y-8.5966 
G01 X-34.5932 Y-8.6185 
G01 X-31.8944 Y-11.7568 
G01 X-31.8944 Y-18.3034 
G01 X-31.8944 Y-18.3432 
G01 X-31.8944 Y-18.3755 
G01 X-31.8921 Y-18.3906 
G01 X-31.8822 Y-18.4214 
G01 X-31.8738 Y-18.4527 
G01 X-31.8676 Y-18.4666 
G01 X-31.8501 Y-18.4938 
G01 X-31.8339 Y-18.5218 
G01 X-31.8243 Y-18.5337 
G01 X-31.8003 Y-18.5553 
G01 X-31.7774 Y-18.5782 
G01 X-31.7651 Y-18.5872 
G01 X-31.7363 Y-18.6020 
G01 X-31.7083 Y-18.6182 
G01 X-25.3828 Y-21.8582 
G01 X-25.3509 Y-21.8755 
G01 X-25.3086 Y-21.8856 
G01 X-25.2733 Y-21.8941 
G01 X-25.2298 Y-21.8930 
G01 X-24.2543 Y-21.8677 
G01 X-24.2403 Y-21.9016 
G01 X-24.2121 Y-21.9298 
G01 X-24.1754 Y-21.9450 
G01 X-22.8406 Y-21.9450 
G01 X-22.8039 Y-21.9298 
G01 X-22.7757 Y-21.9016 
G01 X-22.7605 Y-21.8649 
G01 X-22.7605 Y-21.2251 
G01 X-22.7757 Y-21.1884 
G01 X-22.8039 Y-21.1602 
G01 X-22.8406 Y-21.1450 
G01 X-24.1754 Y-21.1450 
G01 X-24.2121 Y-21.1602 
G01 X-24.2403 Y-21.1884 
G01 X-24.2555 Y-21.2251 
G01 X-24.2555 Y-21.2611 
G01 X-25.1718 Y-21.2849 
G01 X-31.2880 Y-18.1503 
G01 X-31.2880 Y-11.6558 
G01 X-31.2859 Y-11.6273 
G01 X-31.2880 Y-11.6160 
G01 X-31.2880 Y-11.6045 
G01 X-31.2954 Y-11.5769 
G01 X-31.3007 Y-11.5489 
G01 X-31.3057 Y-11.5385 
G01 X-31.3087 Y-11.5273 
G01 X-31.3230 Y-11.5026 
G01 X-31.3353 Y-11.4770 
G01 X-31.3486 Y-11.4582 
G01 X-31.3688 Y-11.4380 
G01 X-34.0647 Y-8.3031 
G01 X-33.9905 Y-2.8129 
G01 X-33.9661 Y-2.7885 
G00 Z1.0000 
G00 X-34.6815 Y-2.8009 
G01 Z-0.1200 F50.00 
G01 X-34.7096 Y-2.7727 F100.00 
G01 X-34.7464 Y-2.7575 
G01 X-36.3736 Y-2.7575 
G01 X-36.4104 Y-2.7727 
G01 X-36.4385 Y-2.8009 
G01 X-36.4537 Y-2.8376 
G01 X-36.4537 Y-4.7824 
G01 X-36.4385 Y-4.8191 
G01 X-36.4104 Y-4.8473 
G01 X-36.3736 Y-4.8625 
G01 X-35.9230 Y-4.8625 
G01 X-35.8830 Y-5.8638 
G01 X-35.8513 Y-5.9656 
G01 X-35.7944 Y-6.0557 
G01 X-35.8629 Y-8.2420 
G01 X-35.8649 Y-8.2788 
G01 X-35.8560 Y-8.3209 
G01 X-35.8483 Y-8.3569 
G01 X-35.8288 Y-8.3953 
G01 X-35.8121 Y-8.4281 
G01 X-35.7833 Y-8.4601 
G01 X-32.5294 Y-12.0782 
G01 X-32.5294 Y-18.9406 
G01 X-32.5294 Y-18.9804 
G01 X-32.5294 Y-19.0105 
G01 X-32.5262 Y-19.0300 
G01 X-32.5166 Y-19.0586 
G01 X-32.5088 Y-19.0877 
G01 X-32.5006 Y-19.1056 
G01 X-32.4839 Y-19.1307 
G01 X-32.4689 Y-19.1568 
G01 X-32.4564 Y-19.1721 
G01 X-32.4337 Y-19.1919 
G01 X-32.4124 Y-19.2132 
G01 X-32.3964 Y-19.2247 
G01 X-32.3694 Y-19.2381 
G01 X-32.3433 Y-19.2532 
G01 X-25.4608 Y-22.6527 
G01 X-25.4316 Y-22.6687 
G01 X-25.4192 Y-22.6732 
G01 X-25.3865 Y-22.6798 
G01 X-25.3541 Y-22.6877 
G01 X-25.3409 Y-22.6889 
G01 X-25.3076 Y-22.6867 
G01 X-24.2555 Y-22.6642 
G01 X-24.2403 Y-22.7016 
G01 X-24.2121 Y-22.7298 
G01 X-24.1754 Y-22.7450 
G01 X-22.8406 Y-22.7450 
G01 X-22.8039 Y-22.7298 
G01 X-22.7757 Y-22.7016 
G01 X-22.7605 Y-22.6649 
G01 X-22.7605 Y-22.0251 
G01 X-22.7757 Y-21.9884 
G01 X-22.8039 Y-21.9602 
G01 X-22.8406 Y-21.9450 
G01 X-24.1754 Y-21.9450 
G01 X-24.2121 Y-21.9602 
G01 X-24.2403 Y-21.9884 
G01 X-24.2555 Y-22.0251 
G01 X-24.2555 Y-22.0577 
G01 X-25.2529 Y-22.0790 
G01 X-31.9230 Y-18.7823 
G01 X-31.9230 Y-11.9699 
G01 X-31.9214 Y-11.9381 
G01 X-31.9230 Y-11.9220 
G01 X-31.9313 Y-11.8912 
G01 X-31.9379 Y-11.8600 
G01 X-31.9437 Y-11.8448 
G01 X-31.9597 Y-11.8172 
G01 X-31.9741 Y-11.7888 
G01 X-31.9836 Y-11.7757 
G01 X-32.0062 Y-11.7531 
G01 X-35.2530 Y-8.1429 
G01 X-35.1862 Y-6.0723 
G01 X-35.1470 Y-6.0298 
G01 X-35.0975 Y-5.9354 
G01 X-35.0740 Y-5.8314 
G01 X-35.1128 Y-4.8625 
G01 X-34.7464 Y-4.8625 
G01 X-34.7096 Y-4.8473 
G01 X-34.6815 Y-4.8191 
G01 X-34.6662 Y-4.7824 
G01 X-34.6662 Y-2.8376 
G01 X-34.6815 Y-2.8009 
G00 Z1.0000 
G00 X-36.5061 Y-2.7885 
G01 Z-0.1200 F50.00 
G01 X-36.4528 Y-2.6962 F100.00 
G01 X-36.4252 Y-2.5933 
G01 X-36.4252 Y-2.4867 
G01 X-36.4528 Y-2.3838 
G01 X-36.5061 Y-2.2914 
G01 X-37.2062 Y-1.5913 
G01 X-37.2062 Y-0.2976 
G01 X-37.2215 Y-0.2609 
G01 X-37.2496 Y-0.2327 
G01 X-37.2864 Y-0.2175 
G01 X-38.9136 Y-0.2175 
G01 X-38.9504 Y-0.2327 
G01 X-38.9785 Y-0.2609 
G01 X-38.9937 Y-0.2976 
G01 X-38.9937 Y-2.2424 
G01 X-38.9785 Y-2.2791 
G01 X-38.9504 Y-2.3073 
G01 X-38.9136 Y-2.3225 
G01 X-37.6200 Y-2.3225 
G01 X-37.1332 Y-2.8093 
G01 X-37.1332 Y-7.9307 
G01 X-37.1347 Y-7.9638 
G01 X-37.1332 Y-7.9774 
G01 X-37.1246 Y-8.0094 
G01 X-37.1175 Y-8.0417 
G01 X-37.1125 Y-8.0545 
G01 X-37.0960 Y-8.0832 
G01 X-37.0807 Y-8.1126 
G01 X-37.0726 Y-8.1237 
G01 X-37.0492 Y-8.1471 
G01 X-33.1644 Y-12.3971 
G01 X-33.1644 Y-19.4987 
G01 X-33.1667 Y-19.5109 
G01 X-33.1644 Y-19.5385 
G01 X-33.1644 Y-19.5662 
G01 X-33.1612 Y-19.5781 
G01 X-33.1602 Y-19.5905 
G01 X-33.1509 Y-19.6166 
G01 X-33.1438 Y-19.6433 
G01 X-33.1376 Y-19.6540 
G01 X-33.1334 Y-19.6657 
G01 X-33.1177 Y-19.6884 
G01 X-33.1039 Y-19.7124 
G01 X-33.0881 Y-19.7314 
G01 X-33.0670 Y-19.7493 
G01 X-33.0474 Y-19.7689 
G01 X-33.0367 Y-19.7751 
G01 X-33.0022 Y-19.7949 
G01 X-32.9783 Y-19.8088 
G01 X-32.9663 Y-19.8120 
G01 X-25.3002 Y-23.4475 
G01 X-25.2733 Y-23.4623 
G01 X-25.2557 Y-23.4686 
G01 X-25.2256 Y-23.4741 
G01 X-25.1958 Y-23.4814 
G01 X-25.1772 Y-23.4829 
G01 X-25.1466 Y-23.4805 
G01 X-24.2555 Y-23.4629 
G01 X-24.2403 Y-23.5016 
G01 X-24.2121 Y-23.5298 
G01 X-24.1754 Y-23.5450 
G01 X-22.8406 Y-23.5450 
G01 X-22.8039 Y-23.5298 
G01 X-22.7757 Y-23.5016 
G01 X-22.7605 Y-23.4649 
G01 X-22.7605 Y-22.8251 
G01 X-22.7757 Y-22.7884 
G01 X-22.8039 Y-22.7602 
G01 X-22.8406 Y-22.7450 
G01 X-24.1754 Y-22.7450 
G01 X-24.2121 Y-22.7602 
G01 X-24.2403 Y-22.7884 
G01 X-24.2555 Y-22.8251 
G01 X-24.2555 Y-22.8564 
G01 X-25.0965 Y-22.8730 
G01 X-32.5581 Y-19.3345 
G01 X-32.5581 Y-12.2861 
G01 X-32.5566 Y-12.2531 
G01 X-32.5581 Y-12.2395 
G01 X-32.5666 Y-12.2075 
G01 X-32.5737 Y-12.1751 
G01 X-32.5787 Y-12.1623 
G01 X-32.5953 Y-12.1337 
G01 X-32.6105 Y-12.1043 
G01 X-32.6186 Y-12.0932 
G01 X-32.6421 Y-12.0698 
G01 X-36.5268 Y-7.8198 
G01 X-36.5268 Y-2.8093 
G01 X-36.5061 Y-2.7885 
G00 Z1.0000 
G00 X-37.2215 Y-2.8009 
G01 Z-0.1200 F50.00 
G01 X-37.2496 Y-2.7727 F100.00 
G01 X-37.2864 Y-2.7575 
G01 X-38.9136 Y-2.7575 
G01 X-38.9504 Y-2.7727 
G01 X-38.9785 Y-2.8009 
G01 X-38.9937 Y-2.8376 
G01 X-38.9937 Y-4.7824 
G01 X-38.9785 Y-4.8191 
G01 X-38.9504 Y-4.8473 
G01 X-38.9136 Y-4.8625 
G01 X-38.5413 Y-4.8625 
G01 X-38.5858 Y-6.1512 
G01 X-38.5617 Y-6.2550 
G01 X-38.5117 Y-6.3491 
G01 X-38.4724 Y-6.3911 
G01 X-38.4031 Y-8.2638 
G01 X-38.4023 Y-8.3011 
G01 X-38.3905 Y-8.3419 
G01 X-38.3801 Y-8.3778 
G01 X-38.3581 Y-8.4141 
G01 X-38.3387 Y-8.4461 
G01 X-38.3082 Y-8.4755 
G01 X-33.8774 Y-12.7275 
G01 X-33.7998 Y-19.9752 
G01 X-33.7993 Y-20.0150 
G01 X-33.7990 Y-20.0457 
G01 X-33.7958 Y-20.0640 
G01 X-33.7858 Y-20.0930 
G01 X-33.7775 Y-20.1226 
G01 X-33.7697 Y-20.1395 
G01 X-33.7525 Y-20.1648 
G01 X-33.7369 Y-20.1913 
G01 X-33.7249 Y-20.2056 
G01 X-33.7017 Y-20.2256 
G01 X-33.6798 Y-20.2471 
G01 X-33.6646 Y-20.2578 
G01 X-33.6370 Y-20.2712 
G01 X-33.6102 Y-20.2863 
G01 X-25.4608 Y-24.2402 
G01 X-25.4336 Y-24.2554 
G01 X-25.4171 Y-24.2614 
G01 X-25.3864 Y-24.2673 
G01 X-25.3561 Y-24.2750 
G01 X-25.3387 Y-24.2765 
G01 X-25.3076 Y-24.2743 
G01 X-24.2555 Y-24.2591 
G01 X-24.2403 Y-24.3016 
G01 X-24.2121 Y-24.3298 
G01 X-24.1754 Y-24.3450 
G01 X-22.8406 Y-24.3450 
G01 X-22.8039 Y-24.3298 
G01 X-22.7757 Y-24.3016 
G01 X-22.7605 Y-24.2649 
G01 X-22.7605 Y-23.6251 
G01 X-22.7757 Y-23.5884 
G01 X-22.8039 Y-23.5602 
G01 X-22.8406 Y-23.5450 
G01 X-24.1754 Y-23.5450 
G01 X-24.2121 Y-23.5602 
G01 X-24.2403 Y-23.5884 
G01 X-24.2555 Y-23.6251 
G01 X-24.2555 Y-23.6526 
G01 X-25.2530 Y-23.6670 
G01 X-33.1951 Y-19.8117 
G01 X-33.2720 Y-12.6320 
G01 X-33.2725 Y-12.5923 
G01 X-33.2729 Y-12.5537 
G01 X-33.2840 Y-12.5138 
G01 X-33.2944 Y-12.4768 
G01 X-33.3155 Y-12.4412 
G01 X-33.3350 Y-12.4081 
G01 X-33.3646 Y-12.3792 
G01 X-33.3921 Y-12.3523 
G01 X-37.8015 Y-8.1212 
G01 X-37.8663 Y-6.3734 
G01 X-37.8078 Y-6.2810 
G01 X-37.7767 Y-6.1791 
G01 X-37.7313 Y-4.8625 
G01 X-37.2864 Y-4.8625 
G01 X-37.2496 Y-4.8473 
G01 X-37.2215 Y-4.8191 
G01 X-37.2062 Y-4.7824 
G01 X-37.2062 Y-2.8376 
G01 X-37.2215 Y-2.8009 
G00 Z1.0000 
G00 X-39.7615 Y-2.8009 
G01 Z-0.1200 F50.00 
G01 X-39.7896 Y-2.7727 F100.00 
G01 X-39.8264 Y-2.7575 
G01 X-40.2352 Y-2.7575 
G01 X-40.2352 Y-2.3225 
G01 X-39.8264 Y-2.3225 
G01 X-39.7896 Y-2.3073 
G01 X-39.7615 Y-2.2791 
G01 X-39.7463 Y-2.2424 
G01 X-39.7463 Y-0.2976 
G01 X-39.7615 Y-0.2609 
G01 X-39.7896 Y-0.2327 
G01 X-39.8264 Y-0.2175 
G01 X-41.4536 Y-0.2175 
G01 X-41.4904 Y-0.2327 
G01 X-41.5185 Y-0.2609 
G01 X-41.5337 Y-0.2976 
G01 X-41.5337 Y-2.2424 
G01 X-41.5185 Y-2.2791 
G01 X-41.4904 Y-2.3073 
G01 X-41.4536 Y-2.3225 
G01 X-41.0448 Y-2.3225 
G01 X-41.0448 Y-2.7575 
G01 X-41.4536 Y-2.7575 
G01 X-41.4904 Y-2.7727 
G01 X-41.5185 Y-2.8009 
G01 X-41.5337 Y-2.8376 
G01 X-41.5337 Y-4.7824 
G01 X-41.5185 Y-4.8191 
G01 X-41.4904 Y-4.8473 
G01 X-41.4536 Y-4.8625 
G01 X-39.8264 Y-4.8625 
G01 X-39.7896 Y-4.8473 
G01 X-39.7615 Y-4.8191 
G01 X-39.7463 Y-4.7824 
G01 X-39.7463 Y-2.8376 
G01 X-39.7615 Y-2.8009 
G00 Z1.0000 
G00 X-42.3015 Y-2.8009 
G01 Z-0.1200 F50.00 
G01 X-42.3296 Y-2.7727 F100.00 
G01 X-42.3664 Y-2.7575 
G01 X-42.7752 Y-2.7575 
G01 X-42.7752 Y-2.3225 
G01 X-42.3664 Y-2.3225 
G01 X-42.3296 Y-2.3073 
G01 X-42.3015 Y-2.2791 
G01 X-42.2863 Y-2.2424 
G01 X-42.2863 Y-0.2976 
G01 X-42.3015 Y-0.2609 
G01 X-42.3296 Y-0.2327 
G01 X-42.3664 Y-0.2175 
G01 X-43.9936 Y-0.2175 
G01 X-44.0304 Y-0.2327 
G01 X-44.0585 Y-0.2609 
G01 X-44.0737 Y-0.2976 
G01 X-44.0737 Y-2.2424 
G01 X-44.0585 Y-2.2791 
G01 X-44.0304 Y-2.3073 
G01 X-43.9936 Y-2.3225 
G01 X-43.5848 Y-2.3225 
G01 X-43.5848 Y-2.7575 
G01 X-43.9936 Y-2.7575 
G01 X-44.0304 Y-2.7727 
G01 X-44.0585 Y-2.8009 
G01 X-44.0737 Y-2.8376 
G01 X-44.0737 Y-4.7824 
G01 X-44.0585 Y-4.8191 
G01 X-44.0304 Y-4.8473 
G01 X-43.9936 Y-4.8625 
G01 X-43.5848 Y-4.8625 
G01 X-43.5848 Y-7.3007 
G01 X-43.5853 Y-7.3520 
G01 X-43.5715 Y-7.4055 
G01 X-43.5587 Y-7.4552 
G01 X-43.5315 Y-7.5033 
G01 X-43.5062 Y-7.5480 
G01 X-43.4676 Y-7.5873 
G01 X-38.3028 Y-12.8500 
G01 X-38.3008 Y-13.0100 
G01 X-38.3199 Y-13.0100 
G01 X-38.3566 Y-13.0252 
G01 X-38.3848 Y-13.0534 
G01 X-38.4000 Y-13.0901 
G01 X-38.4000 Y-15.1299 
G01 X-38.3848 Y-15.1666 
G01 X-38.3566 Y-15.1948 
G01 X-38.3199 Y-15.2100 
G01 X-37.3801 Y-15.2100 
G01 X-37.3434 Y-15.1948 
G01 X-37.3152 Y-15.1666 
G01 X-37.3000 Y-15.1299 
G01 X-37.3000 Y-13.0901 
G01 X-37.3152 Y-13.0534 
G01 X-37.3434 Y-13.0252 
G01 X-37.3801 Y-13.0100 
G01 X-37.4912 Y-13.0100 
G01 X-37.4952 Y-12.6818 
G01 X-37.4947 Y-12.6330 
G01 X-37.5091 Y-12.5771 
G01 X-37.5213 Y-12.5298 
G01 X-37.5497 Y-12.4796 
G01 X-37.5738 Y-12.4370 
G01 X-37.6141 Y-12.3959 
G01 X-42.7752 Y-7.1370 
G01 X-42.7752 Y-4.8625 
G01 X-42.3664 Y-4.8625 
G01 X-42.3296 Y-4.8473 
G01 X-42.3015 Y-4.8191 
G01 X-42.2863 Y-4.7824 
G01 X-42.2863 Y-2.8376 
G01 X-42.3015 Y-2.8009 
G00 Z1.0000 
G00 X-43.5664 Y-8.5661 
G01 Z-0.1200 F50.00 
G01 X-43.5723 Y-8.5627 F100.00 
G01 X-43.6184 Y-8.5361 
G01 X-43.6587 Y-8.5128 
G01 X-43.6713 Y-8.5078 
G01 X-43.7167 Y-8.4973 
G01 X-43.7617 Y-8.4852 
G01 X-43.7751 Y-8.4837 
G01 X-43.8217 Y-8.4852 
G01 X-46.7327 Y-8.4852 
G01 X-46.8284 Y-8.3405 
G01 X-46.9485 Y-8.2204 
G01 X-47.0487 Y-8.1535 
G01 X-47.0487 Y-7.9176 
G01 X-47.0640 Y-7.8809 
G01 X-47.0921 Y-7.8527 
G01 X-47.1289 Y-7.8375 
G01 X-49.5499 Y-7.8375 
G01 X-49.5866 Y-7.8527 
G01 X-49.6148 Y-7.8809 
G01 X-49.6300 Y-7.9176 
G01 X-49.6300 Y-8.2790 
G01 X-49.6916 Y-8.3405 
G01 X-49.7859 Y-8.4817 
G01 X-49.8509 Y-8.6386 
G01 X-49.8840 Y-8.8051 
G01 X-49.8840 Y-8.9749 
G01 X-49.8509 Y-9.1414 
G01 X-49.7859 Y-9.2983 
G01 X-49.6916 Y-9.4395 
G01 X-49.6300 Y-9.5010 
G01 X-49.6300 Y-10.0211 
G01 X-49.6148 Y-10.0579 
G01 X-49.5866 Y-10.0860 
G01 X-49.5499 Y-10.1012 
G01 X-47.1289 Y-10.1012 
G01 X-47.0921 Y-10.0860 
G01 X-47.0640 Y-10.0579 
G01 X-47.0487 Y-10.0211 
G01 X-47.0487 Y-9.6265 
G01 X-46.9485 Y-9.5596 
G01 X-46.8284 Y-9.4395 
G01 X-46.7341 Y-9.2983 
G01 X-43.9749 Y-9.2948 
G01 X-40.4888 Y-12.5584 
G01 X-40.4878 Y-13.0100 
G01 X-40.5199 Y-13.0100 
G01 X-40.5566 Y-13.0252 
G01 X-40.5848 Y-13.0534 
G01 X-40.6000 Y-13.0901 
G01 X-40.6000 Y-15.1299 
G01 X-40.5848 Y-15.1666 
G01 X-40.5566 Y-15.1948 
G01 X-40.5199 Y-15.2100 
G01 X-39.5801 Y-15.2100 
G01 X-39.5434 Y-15.1948 
G01 X-39.5152 Y-15.1666 
G01 X-39.5000 Y-15.1299 
G01 X-39.5000 Y-13.0901 
G01 X-39.5152 Y-13.0534 
G01 X-39.5434 Y-13.0252 
G01 X-39.5801 Y-13.0100 
G01 X-39.6782 Y-13.0100 
G01 X-39.6795 Y-12.4286 
G01 X-39.6796 Y-12.3753 
G01 X-39.6797 Y-12.3283 
G01 X-39.6816 Y-12.3159 
G01 X-39.6952 Y-12.2708 
G01 X-39.7075 Y-12.2254 
G01 X-39.7125 Y-12.2139 
G01 X-39.7374 Y-12.1739 
G01 X-39.7610 Y-12.1332 
G01 X-39.8032 Y-12.0913 
G01 X-39.8366 Y-12.0580 
G01 X-43.5335 Y-8.5990 
G01 X-43.5664 Y-8.5661 
G00 Z1.0000 
G00 X-43.6690 Y-11.1642 
G01 Z-0.1200 F50.00 
G01 X-43.6980 Y-11.1475 F100.00 
G01 X-43.7101 Y-11.1427 
G01 X-43.7428 Y-11.1355 
G01 X-43.7751 Y-11.1268 
G01 X-43.7880 Y-11.1254 
G01 X-43.8214 Y-11.1268 
G01 X-46.6906 Y-11.1268 
G01 X-46.7341 Y-11.0217 
G01 X-46.8284 Y-10.8805 
G01 X-46.9485 Y-10.7604 
G01 X-47.0487 Y-10.6935 
G01 X-47.0487 Y-10.4576 
G01 X-47.0640 Y-10.4209 
G01 X-47.0921 Y-10.3927 
G01 X-47.1289 Y-10.3775 
G01 X-49.5499 Y-10.3775 
G01 X-49.5866 Y-10.3927 
G01 X-49.6148 Y-10.4209 
G01 X-49.6300 Y-10.4576 
G01 X-49.6300 Y-10.8189 
G01 X-49.6916 Y-10.8805 
G01 X-49.7859 Y-11.0217 
G01 X-49.8509 Y-11.1786 
G01 X-49.8840 Y-11.3451 
G01 X-49.8840 Y-11.5149 
G01 X-49.8509 Y-11.6814 
G01 X-49.7859 Y-11.8383 
G01 X-49.6916 Y-11.9795 
G01 X-49.6300 Y-12.0411 
G01 X-49.6300 Y-12.5611 
G01 X-49.6148 Y-12.5979 
G01 X-49.5866 Y-12.6260 
G01 X-49.5499 Y-12.6412 
G01 X-47.1289 Y-12.6412 
G01 X-47.0921 Y-12.6260 
G01 X-47.0640 Y-12.5979 
G01 X-47.0487 Y-12.5611 
G01 X-47.0487 Y-12.1665 
G01 X-46.9485 Y-12.0996 
G01 X-46.8284 Y-11.9795 
G01 X-46.7341 Y-11.8383 
G01 X-46.6906 Y-11.7332 
G01 X-43.8893 Y-11.7332 
G01 X-41.4969 Y-12.9816 
G01 X-41.4967 Y-13.0100 
G01 X-41.6199 Y-13.0100 
G01 X-41.6566 Y-13.0252 
G01 X-41.6848 Y-13.0534 
G01 X-41.7000 Y-13.0901 
G01 X-41.7000 Y-15.1299 
G01 X-41.6848 Y-15.1666 
G01 X-41.6566 Y-15.1948 
G01 X-41.6199 Y-15.2100 
G01 X-40.6801 Y-15.2100 
G01 X-40.6434 Y-15.1948 
G01 X-40.6152 Y-15.1666 
G01 X-40.6000 Y-15.1299 
G01 X-40.6000 Y-13.0901 
G01 X-40.6152 Y-13.0534 
G01 X-40.6434 Y-13.0252 
G01 X-40.6801 Y-13.0100 
G01 X-40.8902 Y-13.0100 
G01 X-40.8921 Y-12.8287 
G01 X-40.8925 Y-12.7889 
G01 X-40.8929 Y-12.7539 
G01 X-40.9049 Y-12.7107 
G01 X-40.9143 Y-12.6770 
G01 X-40.9371 Y-12.6384 
G01 X-40.9549 Y-12.6082 
G01 X-40.9870 Y-12.5769 
G01 X-41.0119 Y-12.5524 
G01 X-41.0510 Y-12.5304 
G01 X-41.0815 Y-12.5132 
G01 X-43.6690 Y-11.1642 
G00 Z1.0000 
G00 X-43.8199 Y-13.0100 
G01 Z-0.1200 F50.00 
G01 X-43.8566 Y-13.0252 F100.00 
G01 X-43.8848 Y-13.0534 
G01 X-43.9000 Y-13.0901 
G01 X-43.9000 Y-15.1299 
G01 X-43.8848 Y-15.1666 
G01 X-43.8566 Y-15.1948 
G01 X-43.8199 Y-15.2100 
G01 X-42.8801 Y-15.2100 
G01 X-42.8434 Y-15.1948 
G01 X-42.8152 Y-15.1666 
G01 X-42.8000 Y-15.1299 
G01 X-42.8000 Y-13.0901 
G01 X-42.8152 Y-13.0534 
G01 X-42.8434 Y-13.0252 
G01 X-42.8801 Y-13.0100 
G01 X-43.8199 Y-13.0100 
G00 Z1.0000 
G00 X-42.7566 Y-13.0252 
G01 Z-0.1200 F50.00 
G01 X-42.7848 Y-13.0534 F100.00 
G01 X-42.8000 Y-13.0901 
G01 X-42.8000 Y-15.1299 
G01 X-42.7848 Y-15.1666 
G01 X-42.7566 Y-15.1948 
G01 X-42.7199 Y-15.2100 
G01 X-41.7801 Y-15.2100 
G01 X-41.7434 Y-15.1948 
G01 X-41.7152 Y-15.1666 
G01 X-41.7000 Y-15.1299 
G01 X-41.7000 Y-13.0901 
G01 X-41.7152 Y-13.0534 
G01 X-41.7434 Y-13.0252 
G01 X-41.7801 Y-13.0100 
G01 X-42.7199 Y-13.0100 
G01 X-42.7566 Y-13.0252 
G00 Z1.0000 
G00 X-43.9452 Y-14.1671 
G01 Z-0.1200 F50.00 
G01 X-43.9734 Y-14.1390 F100.00 
G01 X-44.0101 Y-14.1237 
G01 X-45.6499 Y-14.1237 
G01 X-45.6866 Y-14.1390 
G01 X-45.7148 Y-14.1671 
G01 X-45.7300 Y-14.2039 
G01 X-45.7300 Y-15.6436 
G01 X-45.7148 Y-15.6804 
G01 X-45.6866 Y-15.7085 
G01 X-45.6499 Y-15.7237 
G01 X-44.0101 Y-15.7237 
G01 X-43.9734 Y-15.7085 
G01 X-43.9452 Y-15.6804 
G01 X-43.9300 Y-15.6436 
G01 X-43.9300 Y-14.2039 
G01 X-43.9452 Y-14.1671 
G00 Z1.0000 
G00 X-46.6691 Y-14.2214 
G01 Z-0.1200 F50.00 
G01 X-46.6360 Y-14.0549 F100.00 
G01 X-46.6360 Y-13.8851 
G01 X-46.6691 Y-13.7186 
G01 X-46.7341 Y-13.5617 
G01 X-46.8284 Y-13.4205 
G01 X-46.9485 Y-13.3004 
G01 X-47.0487 Y-13.2335 
G01 X-47.0487 Y-12.9976 
G01 X-47.0640 Y-12.9609 
G01 X-47.0921 Y-12.9327 
G01 X-47.1289 Y-12.9175 
G01 X-49.5499 Y-12.9175 
G01 X-49.5866 Y-12.9327 
G01 X-49.6148 Y-12.9609 
G01 X-49.6300 Y-12.9976 
G01 X-49.6300 Y-13.3589 
G01 X-49.6916 Y-13.4205 
G01 X-49.7859 Y-13.5617 
G01 X-49.8509 Y-13.7186 
G01 X-49.8840 Y-13.8851 
G01 X-49.8840 Y-14.0549 
G01 X-49.8509 Y-14.2214 
G01 X-49.7859 Y-14.3783 
G01 X-49.6916 Y-14.5195 
G01 X-49.6300 Y-14.5810 
G01 X-49.6300 Y-15.1011 
G01 X-49.6148 Y-15.1379 
G01 X-49.5866 Y-15.1660 
G01 X-49.5499 Y-15.1812 
G01 X-47.1289 Y-15.1812 
G01 X-47.0921 Y-15.1660 
G01 X-47.0640 Y-15.1379 
G01 X-46.6407 Y-15.4139 
G01 X-46.5782 Y-15.9772 
G01 X-46.5770 Y-16.0064 
G01 X-46.5738 Y-16.0167 
G01 X-46.5726 Y-16.0275 
G01 X-46.5619 Y-16.0547 
G01 X-46.5533 Y-16.0826 
G01 X-46.5435 Y-16.1019 
G01 X-46.5262 Y-16.1254 
G01 X-46.5106 Y-16.1501 
G01 X-46.4962 Y-16.1662 
G01 X-46.4734 Y-16.1844 
G01 X-45.4523 Y-17.1270 
G01 X-45.4265 Y-17.1521 
G01 X-45.3882 Y-17.1735 
G01 X-45.3568 Y-17.1910 
G01 X-45.3143 Y-17.2018 
G01 X-45.2795 Y-17.2106 
G01 X-45.2356 Y-17.2100 
G01 X-39.5574 Y-17.1311 
G01 X-39.5175 Y-17.1306 
G01 X-39.4846 Y-17.1301 
G01 X-39.4707 Y-17.1278 
G01 X-39.4395 Y-17.1173 
G01 X-39.4078 Y-17.1084 
G01 X-39.3950 Y-17.1025 
G01 X-39.3675 Y-17.0844 
G01 X-39.3392 Y-17.0675 
G01 X-39.3284 Y-17.0585 
G01 X-39.3065 Y-17.0339 
G01 X-39.2836 Y-17.0103 
G01 X-39.2754 Y-16.9988 
G01 X-39.2607 Y-16.9693 
G01 X-39.2446 Y-16.9406 
G01 X-38.7886 Y-16.0251 
G01 X-38.7757 Y-16.0051 
G01 X-38.7708 Y-15.9895 
G01 X-38.7635 Y-15.9749 
G01 X-38.7587 Y-15.9517 
G01 X-38.7515 Y-15.9290 
G01 X-38.7507 Y-15.9127 
G01 X-38.7475 Y-15.8967 
G01 X-38.7489 Y-15.8730 
G01 X-38.7179 Y-15.2100 
G01 X-38.4801 Y-15.2100 
G01 X-38.4434 Y-15.1948 
G01 X-38.4152 Y-15.1666 
G01 X-38.4000 Y-15.1299 
G01 X-38.4000 Y-13.0901 
G01 X-38.4152 Y-13.0534 
G01 X-38.4434 Y-13.0252 
G01 X-38.4801 Y-13.0100 
G01 X-39.4199 Y-13.0100 
G01 X-39.4566 Y-13.0252 
G01 X-39.4848 Y-13.0534 
G01 X-39.5000 Y-13.0901 
G01 X-39.5000 Y-15.1299 
G01 X-39.4848 Y-15.1666 
G01 X-39.4566 Y-15.1948 
G01 X-39.4199 Y-15.2100 
G01 X-39.3249 Y-15.2100 
G01 X-39.3524 Y-15.7968 
G01 X-39.7174 Y-16.5269 
G01 X-45.1270 Y-16.6020 
G01 X-45.9868 Y-15.8084 
G01 X-46.0507 Y-15.2330 
G01 X-46.0499 Y-15.2197 
G01 X-46.0551 Y-15.1934 
G01 X-46.0581 Y-15.1668 
G01 X-46.0629 Y-15.1544 
G01 X-46.0655 Y-15.1414 
G01 X-46.0774 Y-15.1174 
G01 X-46.0871 Y-15.0925 
G01 X-46.0950 Y-15.0818 
G01 X-46.1009 Y-15.0698 
G01 X-46.1186 Y-15.0497 
G01 X-46.1344 Y-15.0282 
G01 X-46.1448 Y-15.0199 
G01 X-46.1759 Y-14.9950 
G01 X-46.1968 Y-14.9783 
G01 X-46.2090 Y-14.9730 
G01 X-46.8527 Y-14.5438 
G01 X-46.8284 Y-14.5195 
G01 X-46.7341 Y-14.3783 
G01 X-46.6691 Y-14.2214 
G00 Z1.0000 
G00 X-47.0640 Y-15.5009 
G01 Z-0.1200 F50.00 
G01 X-47.0921 Y-15.4727 F100.00 
G01 X-47.1289 Y-15.4575 
G01 X-49.5499 Y-15.4575 
G01 X-49.5866 Y-15.4727 
G01 X-49.6148 Y-15.5009 
G01 X-49.6300 Y-15.5376 
G01 X-49.6300 Y-15.8989 
G01 X-49.6916 Y-15.9605 
G01 X-49.7859 Y-16.1017 
G01 X-49.8509 Y-16.2586 
G01 X-49.8840 Y-16.4251 
G01 X-49.8840 Y-16.5949 
G01 X-49.8509 Y-16.7614 
G01 X-49.7859 Y-16.9183 
G01 X-49.6916 Y-17.0595 
G01 X-49.6300 Y-17.1211 
G01 X-49.6300 Y-17.6411 
G01 X-49.6148 Y-17.6779 
G01 X-49.5866 Y-17.7060 
G01 X-49.5499 Y-17.7212 
G01 X-47.1289 Y-17.7212 
G01 X-47.0921 Y-17.7060 
G01 X-47.0640 Y-17.6779 
G01 X-47.0487 Y-17.6411 
G01 X-47.0487 Y-17.5513 
G01 X-46.1884 Y-18.0430 
G01 X-46.1545 Y-18.0625 
G01 X-46.1152 Y-18.0731 
G01 X-46.0774 Y-18.0832 
G01 X-46.0369 Y-18.0832 
G01 X-37.7850 Y-18.0832 
G01 X-37.7477 Y-18.0838 
G01 X-37.7065 Y-18.0735 
G01 X-37.6702 Y-18.0645 
G01 X-37.6331 Y-18.0438 
G01 X-37.6004 Y-18.0257 
G01 X-37.5699 Y-17.9961 
G01 X-37.5430 Y-17.9702 
G01 X-37.5212 Y-17.9338 
G01 X-36.5708 Y-16.3499 
G01 X-36.5507 Y-16.3170 
G01 X-36.5390 Y-16.2775 
G01 X-36.5280 Y-16.2405 
G01 X-36.5269 Y-16.1993 
G01 X-36.5004 Y-15.2100 
G01 X-36.2801 Y-15.2100 
G01 X-36.2434 Y-15.1948 
G01 X-36.2152 Y-15.1666 
G01 X-36.2000 Y-15.1299 
G01 X-36.2000 Y-13.0901 
G01 X-36.2152 Y-13.0534 
G01 X-36.2434 Y-13.0252 
G01 X-36.2801 Y-13.0100 
G01 X-37.2199 Y-13.0100 
G01 X-37.2566 Y-13.0252 
G01 X-37.2848 Y-13.0534 
G01 X-37.3000 Y-13.0901 
G01 X-37.3000 Y-15.1299 
G01 X-37.2848 Y-15.1666 
G01 X-37.2566 Y-15.1948 
G01 X-37.2199 Y-15.2100 
G01 X-37.1070 Y-15.2100 
G01 X-37.1310 Y-16.1048 
G01 X-37.9542 Y-17.4768 
G01 X-45.9570 Y-17.4768 
G01 X-46.7894 Y-17.0011 
G01 X-46.7341 Y-16.9183 
G01 X-46.6691 Y-16.7614 
G01 X-46.6360 Y-16.5949 
G01 X-46.6360 Y-16.4251 
G01 X-46.6691 Y-16.2586 
G01 X-46.7341 Y-16.1017 
G01 X-46.8284 Y-15.9605 
G01 X-46.9485 Y-15.8404 
G01 X-47.0487 Y-15.7735 
G01 X-47.0487 Y-15.5376 
G01 X-47.0640 Y-15.5009 
G00 Z1.0000 
G00 X-47.0640 Y-18.0409 
G01 Z-0.1200 F50.00 
G01 X-47.0921 Y-18.0127 F100.00 
G01 X-47.1289 Y-17.9975 
G01 X-49.5499 Y-17.9975 
G01 X-49.5866 Y-18.0127 
G01 X-49.6148 Y-18.0409 
G01 X-49.6300 Y-18.0776 
G01 X-49.6300 Y-18.4389 
G01 X-49.6916 Y-18.5005 
G01 X-49.7859 Y-18.6417 
G01 X-49.8509 Y-18.7986 
G01 X-49.8840 Y-18.9651 
G01 X-49.8840 Y-19.1349 
G01 X-49.8509 Y-19.3014 
G01 X-49.7859 Y-19.4583 
G01 X-49.6916 Y-19.5995 
G01 X-49.6300 Y-19.6610 
G01 X-49.6300 Y-20.1811 
G01 X-49.6148 Y-20.2179 
G01 X-49.5866 Y-20.2460 
G01 X-49.5499 Y-20.2612 
G01 X-47.1289 Y-20.2612 
G01 X-47.0921 Y-20.2460 
G01 X-47.0640 Y-20.2179 
G01 X-47.0487 Y-20.1811 
G01 X-47.0487 Y-19.7865 
G01 X-46.9485 Y-19.7196 
G01 X-46.8284 Y-19.5995 
G01 X-46.7341 Y-19.4583 
G01 X-46.6812 Y-19.3307 
G01 X-37.1551 Y-19.1946 
G01 X-37.1272 Y-19.1964 
G01 X-37.1153 Y-19.1940 
G01 X-37.1033 Y-19.1938 
G01 X-37.0763 Y-19.1862 
G01 X-37.0489 Y-19.1807 
G01 X-37.0381 Y-19.1754 
G01 X-37.0264 Y-19.1721 
G01 X-37.0024 Y-19.1578 
G01 X-36.9773 Y-19.1453 
G01 X-36.9579 Y-19.1312 
G01 X-36.9384 Y-19.1111 
G01 X-36.9174 Y-19.0926 
G01 X-36.9107 Y-19.0826 
G01 X-36.8886 Y-19.0495 
G01 X-35.3197 Y-16.6962 
G01 X-35.3075 Y-16.6826 
G01 X-35.2977 Y-16.6631 
G01 X-35.2856 Y-16.6450 
G01 X-35.2797 Y-16.6277 
G01 X-35.2715 Y-16.6114 
G01 X-35.2670 Y-16.5900 
G01 X-35.2600 Y-16.5693 
G01 X-35.2588 Y-16.5511 
G01 X-35.2551 Y-16.5332 
G01 X-35.2563 Y-16.5115 
G01 X-35.2549 Y-16.4897 
G01 X-35.2584 Y-16.4718 
G01 X-35.3277 Y-15.2100 
G01 X-35.1801 Y-15.2100 
G01 X-35.1434 Y-15.1948 
G01 X-35.1152 Y-15.1666 
G01 X-35.1000 Y-15.1299 
G01 X-35.1000 Y-13.0901 
G01 X-35.1152 Y-13.0534 
G01 X-35.1434 Y-13.0252 
G01 X-35.1801 Y-13.0100 
G01 X-36.1199 Y-13.0100 
G01 X-36.1566 Y-13.0252 
G01 X-36.1848 Y-13.0534 
G01 X-36.2000 Y-13.0901 
G01 X-36.2000 Y-15.1299 
G01 X-36.1848 Y-15.1666 
G01 X-36.1566 Y-15.1948 
G01 X-36.1199 Y-15.2100 
G01 X-35.9350 Y-15.2100 
G01 X-35.8683 Y-16.4258 
G01 X-37.3113 Y-18.5904 
G01 X-46.6998 Y-18.7245 
G01 X-46.7341 Y-18.6417 
G01 X-46.8284 Y-18.5005 
G01 X-46.9485 Y-18.3804 
G01 X-47.0487 Y-18.3135 
G01 X-47.0487 Y-18.0776 
G01 X-47.0640 Y-18.0409 
G00 Z1.0000 
G00 X-50.5024 Y-21.1725 
G01 Z-0.1200 F50.00 
G01 X-50.5391 Y-21.1877 F100.00 
G01 X-50.5673 Y-21.2159 
G01 X-50.5825 Y-21.2526 
G01 X-50.5825 Y-27.3249 
G01 X-50.5673 Y-27.3616 
G01 X-50.5391 Y-27.3898 
G01 X-50.5024 Y-27.4050 
G01 X-26.0151 Y-27.4050 
G01 X-25.9784 Y-27.3898 
G01 X-25.9502 Y-27.3616 
G01 X-25.9350 Y-27.3249 
G01 X-25.9350 Y-24.4276 
G01 X-25.9502 Y-24.3909 
G01 X-25.9784 Y-24.3627 
G01 X-26.0151 Y-24.3475 
G01 X-28.1575 Y-24.3475 
G01 X-28.1575 Y-23.4751 
G01 X-28.1727 Y-23.4384 
G01 X-28.2009 Y-23.4102 
G01 X-28.2376 Y-23.3950 
G01 X-28.3837 Y-23.3950 
G01 X-28.3952 Y-23.3671 
G01 X-28.4234 Y-23.3390 
G01 X-28.4601 Y-23.3238 
G01 X-29.6999 Y-23.3238 
G01 X-29.7366 Y-23.3390 
G01 X-29.7648 Y-23.3671 
G01 X-29.7763 Y-23.3950 
G01 X-30.6975 Y-23.3950 
G01 X-30.6975 Y-22.2051 
G01 X-30.7127 Y-22.1684 
G01 X-30.7409 Y-22.1402 
G01 X-30.7776 Y-22.1250 
G01 X-34.5075 Y-22.1250 
G01 X-34.5075 Y-21.2526 
G01 X-34.5227 Y-21.2159 
G01 X-34.5509 Y-21.1877 
G01 X-34.5876 Y-21.1725 
G01 X-50.5024 Y-21.1725 
G00 Z1.0000 
G00 X-35.0848 Y-15.1666 
G01 Z-0.1200 F50.00 
G01 X-35.0566 Y-15.1948 F100.00 
G01 X-35.0199 Y-15.2100 
G01 X-34.0801 Y-15.2100 
G01 X-34.0434 Y-15.1948 
G01 X-34.0152 Y-15.1666 
G01 X-34.0000 Y-15.1299 
G01 X-34.0000 Y-13.0901 
G01 X-34.0152 Y-13.0534 
G01 X-34.0434 Y-13.0252 
G01 X-34.0801 Y-13.0100 
G01 X-35.0199 Y-13.0100 
G01 X-35.0566 Y-13.0252 
G01 X-35.0848 Y-13.0534 
G01 X-35.1000 Y-13.0901 
G01 X-35.1000 Y-15.1299 
G01 X-35.0848 Y-15.1666 
G00 Z1.0000 
G00 X-30.8800 Y-15.6436 
G01 Z-0.1200 F50.00 
G01 X-30.8648 Y-15.6804 F100.00 
G01 X-30.8366 Y-15.7085 
G01 X-30.7999 Y-15.7237 
G01 X-29.1601 Y-15.7237 
G01 X-29.1234 Y-15.7085 
G01 X-29.0952 Y-15.6804 
G01 X-29.0800 Y-15.6436 
G01 X-29.0800 Y-14.2039 
G01 X-29.0952 Y-14.1671 
G01 X-29.1234 Y-14.1390 
G01 X-29.1601 Y-14.1237 
G01 X-30.7999 Y-14.1237 
G01 X-30.8366 Y-14.1390 
G01 X-30.8648 Y-14.1671 
G01 X-30.8800 Y-14.2039 
G01 X-30.8800 Y-15.6436 
G00 Z1.0000 
G00 X-24.2403 Y-9.9016 
G01 Z-0.1200 F50.00 
G01 X-24.2121 Y-9.9298 F100.00 
G01 X-24.1754 Y-9.9450 
G01 X-22.8406 Y-9.9450 
G01 X-22.8039 Y-9.9298 
G01 X-22.7757 Y-9.9016 
G01 X-22.7605 Y-9.8649 
G01 X-22.7605 Y-9.2251 
G01 X-22.7757 Y-9.1884 
G01 X-22.8039 Y-9.1602 
G01 X-22.8406 Y-9.1450 
G01 X-24.1754 Y-9.1450 
G01 X-24.2121 Y-9.1602 
G01 X-24.2403 Y-9.1884 
G01 X-24.2555 Y-9.2251 
G01 X-24.2555 Y-9.8649 
G01 X-24.2403 Y-9.9016 
G00 Z1.0000 
G00 X-24.2403 Y-9.1016 
G01 Z-0.1200 F50.00 
G01 X-24.2121 Y-9.1298 F100.00 
G01 X-24.1754 Y-9.1450 
G01 X-22.8406 Y-9.1450 
G01 X-22.8039 Y-9.1298 
G01 X-22.7757 Y-9.1016 
G01 X-22.7605 Y-9.0649 
G01 X-22.7605 Y-8.4251 
G01 X-22.7757 Y-8.3884 
G01 X-22.8039 Y-8.3602 
G01 X-22.8406 Y-8.3450 
G01 X-24.1754 Y-8.3450 
G01 X-24.2121 Y-8.3602 
G01 X-24.2403 Y-8.3884 
G01 X-24.2555 Y-8.4251 
G01 X-24.2555 Y-9.0649 
G01 X-24.2403 Y-9.1016 
G00 Z1.0000 
G00 X-24.2121 Y-24.3602 
G01 Z-0.1200 F50.00 
G01 X-24.2403 Y-24.3884 F100.00 
G01 X-24.2555 Y-24.4251 
G01 X-24.2555 Y-25.0649 
G01 X-24.2403 Y-25.1016 
G01 X-24.2121 Y-25.1298 
G01 X-24.1754 Y-25.1450 
G01 X-22.8406 Y-25.1450 
G01 X-22.8039 Y-25.1298 
G01 X-22.7757 Y-25.1016 
G01 X-22.7605 Y-25.0649 
G01 X-22.7605 Y-24.4251 
G01 X-22.7757 Y-24.3884 
G01 X-22.8039 Y-24.3602 
G01 X-22.8406 Y-24.3450 
G01 X-24.1754 Y-24.3450 
G01 X-24.2121 Y-24.3602 
G00 Z1.0000 
G00 X-24.2121 Y-25.1602 
G01 Z-0.1200 F50.00 
G01 X-24.2403 Y-25.1884 F100.00 
G01 X-24.2555 Y-25.2251 
G01 X-24.2555 Y-25.8649 
G01 X-24.2403 Y-25.9016 
G01 X-24.2121 Y-25.9298 
G01 X-24.1754 Y-25.9450 
G01 X-22.8406 Y-25.9450 
G01 X-22.8039 Y-25.9298 
G01 X-22.7757 Y-25.9016 
G01 X-22.7605 Y-25.8649 
G01 X-22.7605 Y-25.2251 
G01 X-22.7757 Y-25.1884 
G01 X-22.8039 Y-25.1602 
G01 X-22.8406 Y-25.1450 
G01 X-24.1754 Y-25.1450 
G01 X-24.2121 Y-25.1602 
G00 Z1.0000 
G00 X-0.4931 Y-7.1490 
G01 Z-0.1200 F50.00 
G01 X-0.5151 Y-7.1313 F100.00 
G01 X-0.5351 Y-7.1114 
G01 X-0.5654 Y-7.0912 
G01 X-1.3089 Y-6.4963 
G01 X-1.3288 Y-6.4764 
G01 X-1.3591 Y-6.4561 
G01 X-1.3876 Y-6.4334 
G01 X-1.4126 Y-6.4204 
G01 X-1.4361 Y-6.4047 
G01 X-1.4698 Y-6.3908 
G01 X-1.5021 Y-6.3740 
G01 X-1.5292 Y-6.3662 
G01 X-1.5553 Y-6.3554 
G01 X-1.5910 Y-6.3483 
G01 X-1.6260 Y-6.3381 
G01 X-1.6541 Y-6.3357 
G01 X-1.6818 Y-6.3302 
G01 X-1.7182 Y-6.3302 
G01 X-1.7545 Y-6.3271 
G01 X-1.7825 Y-6.3302 
G01 X-6.2557 Y-6.3302 
G01 X-6.3822 Y-6.3554 
G01 X-6.5014 Y-6.4047 
G01 X-6.6087 Y-6.4764 
G01 X-6.6999 Y-6.5676 
G01 X-8.0387 Y-7.9064 
G01 X-8.0843 Y-7.9520 
G01 X-8.1286 Y-7.9963 
G01 X-8.1654 Y-8.0514 
G01 X-8.2003 Y-8.1036 
G01 X-8.2255 Y-8.1645 
G01 X-8.2496 Y-8.2227 
G01 X-8.9718 Y-9.9947 
G01 X-8.9718 Y-7.6748 
G01 X-8.9683 Y-7.6571 
G01 X-8.9718 Y-7.6022 
G01 X-8.9718 Y-7.5472 
G01 X-8.9765 Y-7.5297 
G01 X-8.9776 Y-7.5117 
G01 X-8.9953 Y-7.4596 
G01 X-9.0095 Y-7.4065 
G01 X-9.0185 Y-7.3908 
G01 X-9.0243 Y-7.3737 
G01 X-9.0548 Y-7.3280 
G01 X-9.0823 Y-7.2803 
G01 X-9.0951 Y-7.2676 
G01 X-9.5052 Y-6.6524 
G01 X-9.5052 Y-5.1125 
G01 X-9.3202 Y-5.1125 
G01 X-9.2312 Y-5.0886 
G01 X-9.1513 Y-5.0426 
G01 X-9.0862 Y-4.9774 
G01 X-9.0401 Y-4.8976 
G01 X-9.0162 Y-4.8086 
G01 X-9.0162 Y-2.8114 
G01 X-9.0401 Y-2.7224 
G01 X-9.0862 Y-2.6426 
G01 X-9.1513 Y-2.5774 
G01 X-9.2162 Y-2.5400 
G01 X-9.1513 Y-2.5026 
G01 X-9.0862 Y-2.4374 
G01 X-9.0401 Y-2.3576 
G01 X-9.0162 Y-2.2686 
G01 X-9.0162 Y-0.2714 
G01 X-9.0401 Y-0.1824 
G01 X-9.0862 Y-0.1026 
G01 X-9.1513 Y-0.0374 
G01 X-9.2312 Y0.0086 
G01 X-9.3202 Y0.0325 
G01 X-10.9998 Y0.0325 
G01 X-11.0888 Y0.0086 
G01 X-11.1687 Y-0.0374 
G01 X-11.2338 Y-0.1026 
G01 X-11.2799 Y-0.1824 
G01 X-11.3037 Y-0.2714 
G01 X-11.3037 Y-1.7402 
G01 X-11.5563 Y-1.4877 
G01 X-11.5563 Y-0.2714 
G01 X-11.5801 Y-0.1824 
G01 X-11.6262 Y-0.1026 
G01 X-11.6913 Y-0.0374 
G01 X-11.7712 Y0.0086 
G01 X-11.8602 Y0.0325 
G01 X-13.5398 Y0.0325 
G01 X-13.6288 Y0.0086 
G01 X-13.7087 Y-0.0374 
G01 X-13.7738 Y-0.1026 
G01 X-13.8199 Y-0.1824 
G01 X-13.8437 Y-0.2714 
G01 X-13.8437 Y-1.7402 
G01 X-14.0962 Y-1.4877 
G01 X-14.0962 Y-0.2714 
G01 X-14.1201 Y-0.1824 
G01 X-14.1662 Y-0.1026 
G01 X-14.2313 Y-0.0374 
G01 X-14.3112 Y0.0086 
G01 X-14.4002 Y0.0325 
G01 X-16.0798 Y0.0325 
G01 X-16.1688 Y0.0086 
G01 X-16.2487 Y-0.0374 
G01 X-16.3138 Y-0.1026 
G01 X-16.3599 Y-0.1824 
G01 X-16.3837 Y-0.2714 
G01 X-16.3837 Y-1.7981 
G01 X-16.6363 Y-1.5298 
G01 X-16.6363 Y-0.2714 
G01 X-16.6601 Y-0.1824 
G01 X-16.7062 Y-0.1026 
G01 X-16.7713 Y-0.0374 
G01 X-16.8512 Y0.0086 
G01 X-16.9402 Y0.0325 
G01 X-18.6198 Y0.0325 
G01 X-18.7088 Y0.0086 
G01 X-18.7887 Y-0.0374 
G01 X-18.8538 Y-0.1026 
G01 X-18.8999 Y-0.1824 
G01 X-18.9237 Y-0.2714 
G01 X-18.9237 Y-1.7402 
G01 X-19.1762 Y-1.4877 
G01 X-19.1762 Y-0.2714 
G01 X-19.2001 Y-0.1824 
G01 X-19.2462 Y-0.1026 
G01 X-19.3113 Y-0.0374 
G01 X-19.3912 Y0.0086 
G01 X-19.4802 Y0.0325 
G01 X-21.1598 Y0.0325 
G01 X-21.2488 Y0.0086 
G01 X-21.3287 Y-0.0374 
G01 X-21.3938 Y-0.1026 
G01 X-21.4399 Y-0.1824 
G01 X-21.4637 Y-0.2714 
G01 X-21.4637 Y-1.7402 
G01 X-21.7162 Y-1.4877 
G01 X-21.7162 Y-0.2714 
G01 X-21.7401 Y-0.1824 
G01 X-21.7862 Y-0.1026 
G01 X-21.8513 Y-0.0374 
G01 X-21.9312 Y0.0086 
G01 X-22.0202 Y0.0325 
G01 X-23.6998 Y0.0325 
G01 X-23.7888 Y0.0086 
G01 X-23.8687 Y-0.0374 
G01 X-23.9338 Y-0.1026 
G01 X-23.9799 Y-0.1824 
G01 X-24.0037 Y-0.2714 
G01 X-24.0037 Y-1.7402 
G01 X-24.2563 Y-1.4877 
G01 X-24.2563 Y-0.2714 
G01 X-24.2801 Y-0.1824 
G01 X-24.3262 Y-0.1026 
G01 X-24.3913 Y-0.0374 
G01 X-24.4712 Y0.0086 
G01 X-24.5602 Y0.0325 
G01 X-26.2398 Y0.0325 
G01 X-26.3288 Y0.0086 
G01 X-26.4087 Y-0.0374 
G01 X-26.4738 Y-0.1026 
G01 X-26.5199 Y-0.1824 
G01 X-26.5437 Y-0.2714 
G01 X-26.5437 Y-1.7402 
G01 X-26.7963 Y-1.4877 
G01 X-26.7963 Y-0.2714 
G01 X-26.8201 Y-0.1824 
G01 X-26.8662 Y-0.1026 
G01 X-26.9313 Y-0.0374 
G01 X-27.0112 Y0.0086 
G01 X-27.1002 Y0.0325 
G01 X-28.7798 Y0.0325 
G01 X-28.8688 Y0.0086 
G01 X-28.9487 Y-0.0374 
G01 X-29.0138 Y-0.1026 
G01 X-29.0599 Y-0.1824 
G01 X-29.0837 Y-0.2714 
G01 X-29.0837 Y-1.7402 
G01 X-29.3362 Y-1.4877 
G01 X-29.3362 Y-0.2714 
G01 X-29.3601 Y-0.1824 
G01 X-29.4062 Y-0.1026 
G01 X-29.4713 Y-0.0374 
G01 X-29.5512 Y0.0086 
G01 X-29.6402 Y0.0325 
G01 X-31.3198 Y0.0325 
G01 X-31.4088 Y0.0086 
G01 X-31.4887 Y-0.0374 
G01 X-31.5538 Y-0.1026 
G01 X-31.5999 Y-0.1824 
G01 X-31.6237 Y-0.2714 
G01 X-31.6237 Y-1.7402 
G01 X-31.8762 Y-1.4877 
G01 X-31.8762 Y-0.2714 
G01 X-31.9001 Y-0.1824 
G01 X-31.9462 Y-0.1026 
G01 X-32.0113 Y-0.0374 
G01 X-32.0912 Y0.0086 
G01 X-32.1802 Y0.0325 
G01 X-33.8598 Y0.0325 
G01 X-33.9488 Y0.0086 
G01 X-34.0287 Y-0.0374 
G01 X-34.0938 Y-0.1026 
G01 X-34.1399 Y-0.1824 
G01 X-34.1637 Y-0.2714 
G01 X-34.1637 Y-1.7402 
G01 X-34.4162 Y-1.4877 
G01 X-34.4162 Y-0.2714 
G01 X-34.4401 Y-0.1824 
G01 X-34.4862 Y-0.1026 
G01 X-34.5513 Y-0.0374 
G01 X-34.6312 Y0.0086 
G01 X-34.7202 Y0.0325 
G01 X-36.3998 Y0.0325 
G01 X-36.4888 Y0.0086 
G01 X-36.5687 Y-0.0374 
G01 X-36.6338 Y-0.1026 
G01 X-36.6799 Y-0.1824 
G01 X-36.7037 Y-0.2714 
G01 X-36.7037 Y-1.7402 
G01 X-36.9562 Y-1.4877 
G01 X-36.9562 Y-0.2714 
G01 X-36.9801 Y-0.1824 
G01 X-37.0262 Y-0.1026 
G01 X-37.0913 Y-0.0374 
G01 X-37.1712 Y0.0086 
G01 X-37.2602 Y0.0325 
G01 X-38.9398 Y0.0325 
G01 X-39.0288 Y0.0086 
G01 X-39.1087 Y-0.0374 
G01 X-39.1738 Y-0.1026 
G01 X-39.2199 Y-0.1824 
G01 X-39.2437 Y-0.2714 
G01 X-39.2437 Y-2.2686 
G01 X-39.2199 Y-2.3576 
G01 X-39.1738 Y-2.4374 
G01 X-39.1087 Y-2.5026 
G01 X-39.0438 Y-2.5400 
G01 X-39.1087 Y-2.5774 
G01 X-39.1738 Y-2.6426 
G01 X-39.2199 Y-2.7224 
G01 X-39.2437 Y-2.8114 
G01 X-39.2437 Y-4.8086 
G01 X-39.2199 Y-4.8976 
G01 X-39.1738 Y-4.9774 
G01 X-39.1087 Y-5.0426 
G01 X-39.0288 Y-5.0886 
G01 X-38.9398 Y-5.1125 
G01 X-38.8001 Y-5.1125 
G01 X-38.8360 Y-6.1538 
G01 X-38.8152 Y-6.2811 
G01 X-38.7700 Y-6.4019 
G01 X-38.7192 Y-6.4839 
G01 X-38.6530 Y-8.2709 
G01 X-38.6516 Y-8.3392 
G01 X-38.6300 Y-8.4135 
G01 X-38.6110 Y-8.4791 
G01 X-38.5709 Y-8.5453 
G01 X-38.5356 Y-8.6037 
G01 X-38.4798 Y-8.6573 
G01 X-34.2046 Y-12.7600 
G01 X-35.0461 Y-12.7600 
G01 X-35.1000 Y-12.7744 
G01 X-35.1539 Y-12.7600 
G01 X-36.1461 Y-12.7600 
G01 X-36.2000 Y-12.7744 
G01 X-36.2539 Y-12.7600 
G01 X-37.2442 Y-12.7600 
G01 X-37.2452 Y-12.6815 
G01 X-37.2446 Y-12.6242 
G01 X-37.2460 Y-12.6100 
G01 X-37.2579 Y-12.5538 
G01 X-37.2686 Y-12.4974 
G01 X-37.2727 Y-12.4838 
G01 X-37.2954 Y-12.4310 
G01 X-37.3168 Y-12.3778 
G01 X-37.3235 Y-12.3653 
G01 X-37.3560 Y-12.3179 
G01 X-37.3875 Y-12.2699 
G01 X-37.3965 Y-12.2589 
G01 X-37.4377 Y-12.2188 
G01 X-42.5252 Y-7.0349 
G01 X-42.5252 Y-5.1125 
G01 X-42.3402 Y-5.1125 
G01 X-42.2512 Y-5.0886 
G01 X-42.1713 Y-5.0426 
G01 X-42.1062 Y-4.9774 
G01 X-42.0601 Y-4.8976 
G01 X-42.0363 Y-4.8086 
G01 X-42.0363 Y-2.8114 
G01 X-42.0601 Y-2.7224 
G01 X-42.1062 Y-2.6426 
G01 X-42.1713 Y-2.5774 
G01 X-42.2362 Y-2.5400 
G01 X-42.1713 Y-2.5026 
G01 X-42.1062 Y-2.4374 
G01 X-42.0601 Y-2.3576 
G01 X-42.0363 Y-2.2686 
G01 X-42.0363 Y-0.2714 
G01 X-42.0601 Y-0.1824 
G01 X-42.1062 Y-0.1026 
G01 X-42.1713 Y-0.0374 
G01 X-42.2512 Y0.0086 
G01 X-42.3402 Y0.0325 
G01 X-44.0198 Y0.0325 
G01 X-44.1088 Y0.0086 
G01 X-44.1887 Y-0.0374 
G01 X-44.2538 Y-0.1026 
G01 X-44.2999 Y-0.1824 
G01 X-44.3237 Y-0.2714 
G01 X-44.3237 Y-2.2686 
G01 X-44.2999 Y-2.3576 
G01 X-44.2538 Y-2.4374 
G01 X-44.1887 Y-2.5026 
G01 X-44.1238 Y-2.5400 
G01 X-44.1887 Y-2.5774 
G01 X-44.2538 Y-2.6426 
G01 X-44.2999 Y-2.7224 
G01 X-44.3237 Y-2.8114 
G01 X-44.3237 Y-4.8086 
G01 X-44.2999 Y-4.8976 
G01 X-44.2538 Y-4.9774 
G01 X-44.1887 Y-5.0426 
G01 X-44.1088 Y-5.0886 
G01 X-44.0198 Y-5.1125 
G01 X-43.8348 Y-5.1125 
G01 X-43.8348 Y-7.2995 
G01 X-43.8354 Y-7.3608 
G01 X-43.8228 Y-7.4274 
G01 X-43.8114 Y-7.4876 
G01 X-43.7861 Y-7.5504 
G01 X-43.7632 Y-7.6072 
G01 X-43.7261 Y-7.6638 
G01 X-43.6925 Y-7.7151 
G01 X-43.6452 Y-7.7634 
G01 X-38.7414 Y-12.7600 
G01 X-39.4287 Y-12.7600 
G01 X-39.4295 Y-12.4354 
G01 X-39.4296 Y-12.3710 
G01 X-39.4297 Y-12.3165 
G01 X-39.4321 Y-12.2965 
G01 X-39.4444 Y-12.2435 
G01 X-39.4552 Y-12.1901 
G01 X-39.4614 Y-12.1709 
G01 X-39.4839 Y-12.1213 
G01 X-39.5048 Y-12.0710 
G01 X-39.5146 Y-12.0534 
G01 X-39.5463 Y-12.0091 
G01 X-39.5767 Y-11.9639 
G01 X-39.5898 Y-11.9486 
G01 X-39.6295 Y-11.9114 
G01 X-39.6681 Y-11.8729 
G01 X-43.3596 Y-8.4193 
G01 X-43.3976 Y-8.3814 
G01 X-43.4146 Y-8.3679 
G01 X-43.4602 Y-8.3396 
G01 X-43.5048 Y-8.3097 
G01 X-43.5149 Y-8.3056 
G01 X-43.5744 Y-8.2809 
G01 X-43.6240 Y-8.2604 
G01 X-43.6347 Y-8.2582 
G01 X-43.6448 Y-8.2544 
G01 X-43.6978 Y-8.2457 
G01 X-43.7505 Y-8.2352 
G01 X-43.7614 Y-8.2352 
G01 X-43.7721 Y-8.2334 
G01 X-43.8258 Y-8.2352 
G01 X-46.5992 Y-8.2352 
G01 X-46.6498 Y-8.1656 
G01 X-46.7736 Y-8.0418 
G01 X-46.7987 Y-8.0235 
G01 X-46.7987 Y-7.8914 
G01 X-46.8226 Y-7.8024 
G01 X-46.8687 Y-7.7226 
G01 X-46.9338 Y-7.6574 
G01 X-47.0137 Y-7.6114 
G01 X-47.1027 Y-7.5875 
G01 X-49.5761 Y-7.5875 
G01 X-49.6651 Y-7.6114 
G01 X-49.7449 Y-7.6574 
G01 X-49.8101 Y-7.7226 
G01 X-49.8561 Y-7.8024 
G01 X-49.8800 Y-7.8914 
G01 X-49.8800 Y-8.1791 
G01 X-49.9731 Y-8.3072 
G01 X-50.0525 Y-8.4631 
G01 X-50.1066 Y-8.6296 
G01 X-50.1340 Y-8.8025 
G01 X-50.1340 Y-8.9775 
G01 X-50.1066 Y-9.1504 
G01 X-50.0525 Y-9.3169 
G01 X-49.9731 Y-9.4728 
G01 X-49.8800 Y-9.6009 
G01 X-49.8800 Y-10.0473 
G01 X-49.8561 Y-10.1363 
G01 X-49.8101 Y-10.2162 
G01 X-49.7868 Y-10.2394 
G01 X-49.8101 Y-10.2626 
G01 X-49.8561 Y-10.3424 
G01 X-49.8800 Y-10.4314 
G01 X-49.8800 Y-10.7191 
G01 X-49.9731 Y-10.8472 
G01 X-50.0525 Y-11.0031 
G01 X-50.1066 Y-11.1696 
G01 X-50.1340 Y-11.3425 
G01 X-50.1340 Y-11.5175 
G01 X-50.1066 Y-11.6904 
G01 X-50.0525 Y-11.8569 
G01 X-49.9731 Y-12.0128 
G01 X-49.8800 Y-12.1409 
G01 X-49.8800 Y-12.5873 
G01 X-49.8561 Y-12.6763 
G01 X-49.8101 Y-12.7562 
G01 X-49.7868 Y-12.7794 
G01 X-49.8101 Y-12.8026 
G01 X-49.8561 Y-12.8824 
G01 X-49.8800 Y-12.9714 
G01 X-49.8800 Y-13.2591 
G01 X-49.9731 Y-13.3872 
G01 X-50.0525 Y-13.5431 
G01 X-50.1066 Y-13.7096 
G01 X-50.1340 Y-13.8825 
G01 X-50.1340 Y-14.0575 
G01 X-50.1066 Y-14.2304 
G01 X-50.0525 Y-14.3969 
G01 X-49.9731 Y-14.5528 
G01 X-49.8800 Y-14.6809 
G01 X-49.8800 Y-15.1273 
G01 X-49.8561 Y-15.2163 
G01 X-49.8101 Y-15.2962 
G01 X-49.7868 Y-15.3194 
G01 X-49.8101 Y-15.3426 
G01 X-49.8561 Y-15.4224 
G01 X-49.8800 Y-15.5114 
G01 X-49.8800 Y-15.7991 
G01 X-49.9731 Y-15.9272 
G01 X-50.0525 Y-16.0831 
G01 X-50.1066 Y-16.2496 
G01 X-50.1340 Y-16.4225 
G01 X-50.1340 Y-16.5975 
G01 X-50.1066 Y-16.7704 
G01 X-50.0525 Y-16.9369 
G01 X-49.9731 Y-17.0928 
G01 X-49.8800 Y-17.2209 
G01 X-49.8800 Y-17.6673 
G01 X-49.8561 Y-17.7563 
G01 X-49.8101 Y-17.8362 
G01 X-49.7868 Y-17.8594 
G01 X-49.8101 Y-17.8826 
G01 X-49.8561 Y-17.9624 
G01 X-49.8800 Y-18.0514 
G01 X-49.8800 Y-18.3391 
G01 X-49.9731 Y-18.4672 
G01 X-50.0525 Y-18.6231 
G01 X-50.1066 Y-18.7896 
G01 X-50.1340 Y-18.9625 
G01 X-50.1340 Y-19.1375 
G01 X-50.1066 Y-19.3104 
G01 X-50.0525 Y-19.4769 
G01 X-49.9731 Y-19.6328 
G01 X-49.8800 Y-19.7609 
G01 X-49.8800 Y-20.2073 
G01 X-49.8561 Y-20.2963 
G01 X-49.8101 Y-20.3762 
G01 X-49.7449 Y-20.4413 
G01 X-49.6651 Y-20.4874 
G01 X-49.5761 Y-20.5112 
G01 X-47.1027 Y-20.5112 
G01 X-47.0137 Y-20.4874 
G01 X-46.9338 Y-20.4413 
G01 X-46.8687 Y-20.3762 
G01 X-46.8226 Y-20.2963 
G01 X-46.7987 Y-20.2073 
G01 X-46.7987 Y-19.9165 
G01 X-46.7736 Y-19.8982 
G01 X-46.6498 Y-19.7744 
G01 X-46.5469 Y-19.6328 
G01 X-46.5192 Y-19.5784 
G01 X-37.1614 Y-19.4447 
G01 X-37.1104 Y-19.4480 
G01 X-37.0888 Y-19.4437 
G01 X-37.0668 Y-19.4433 
G01 X-37.0177 Y-19.4294 
